!!!COM: Beethoven, Ludwig van
!!!CDT: 1770///-1827///
!!!ODT: 1801///
!!!OTL: String Quintet in C major, Op. 29
!!!OPS: Op. 29
!!!OMV: Mvmt. 2
!!!OMD: Adagio molto expressivo
!!!PDT: 1802///
!!!PPP: Leipzig
!!!ODE: Count Fries
**kern	**dynam	**kern	**dynam	**kern	**dynam	**kern	**dynam	**kern	**dynam
*staff5	*staff5	*staff4	*staff4	*staff3	*staff3	*staff2	*staff2	*staff1	*staff1
*Icello	*Icello	*Iviola	*Iviola	*Iviola	*Iviola	*Ivioln	*Ivioln	*Ivioln	*Ivioln
*clefF4	*clefF4	*clefC3	*clefC3	*clefC3	*clefC3	*clefG2	*clefG2	*clefG2	*clefG2
*k[b-]	*k[b-]	*k[b-]	*k[b-]	*k[b-]	*k[b-]	*k[b-]	*k[b-]	*k[b-]	*k[b-]
*M3/4	*M3/4	*M3/4	*M3/4	*M3/4	*M3/4	*M3/4	*M3/4	*M3/4	*M3/4
*MM52	*MM52	*MM52	*MM52	*MM52	*MM52	*MM52	*MM52	*MM52	*MM52
=1-	=1-	=1-	=1-	=1-	=1-	=1-	=1-	=1-	=1-
8FF/	p	(2F/	p	(2A/	p	(2c/	p	(8..a/L	p
8r	.	.	.	.	.	.	.	.	.
.	.	.	.	.	.	.	.	32b-/Jkk)	.
4r	.	.	.	.	.	.	.	(8.cc\L	.
.	.	.	.	.	.	.	.	32dd\LL	.
.	.	.	.	.	.	.	.	&(32ee\JJJ&))	.
4AA/	.	4A/)	.	4c/)	.	4f/)	.	(8.ff\L	.
.	.	.	.	.	.	.	.	32gg\LL	.
.	.	.	.	.	.	.	.	32aa\JJJ)	.
=2	=2	=2	=2	=2	=2	=2	=2	=2	=2
4GG/	.	(4G/	.	2c/	.	(4e/	.	(8..bb-\L	.
.	.	.	.	.	.	.	.	32gg\Jkk)	.
4BB-/	.	4B-/	.	.	.	4g/	.	(4ee\	.
4AA/	.	4A/	.	(4c/	.	[4f/	.	[4ff\)	.
=3	=3	=3	=3	=3	=3	=3	=3	=3	=3
4BB-/	.	8G/L	.	8d/L	.	2f/])	.	(16ff\LL]	.
.	.	.	.	.	.	.	.	32ee\L	.
.	.	.	.	.	.	.	.	32ff\	.
.	.	8B-/J	.	8G/J	.	.	.	32gg\	.
.	.	.	.	.	.	.	.	32ff\	.
.	.	.	.	.	.	.	.	32ee\	.
.	.	.	.	.	.	.	.	32dd\JJJ)	.
4C/	.	4A/	.	4c/)	.	.	.	[4cc\	.
4C/	.	8.B-/L	.	[4c/	.	4e/	.	(16cc\LL]	.
.	.	.	.	.	.	.	.	16cc#\	.
.	.	.	.	.	.	.	.	16dd\	.
.	.	16G/Jk)	.	.	.	.	.	16b-\JJ)	.
=4	=4	=4	=4	=4	=4	=4	=4	=4	=4
.	.	.	.	.	.	.	.	(aq/LLL	.
.	.	.	.	.	.	.	.	b-q/	.
.	.	.	.	.	.	.	.	ccq/JJJ	.
4FF/	.	(16G/LL	.	(8c/L]	.	(16e/LL	.	(16b-\LL)	.
.	.	16F/	.	.	.	16f/	.	16a\	.
.	.	16B-/	.	16d/L	.	16b-/	.	16dd\	.
.	.	16A/JJ)	.	16c/JJ)	.	16a/JJ)	.	16cc\JJ)	.
4F\	.	4A/	.	4c/	.	4a/	.	4cc\	.
4r	.	4r	.	4r	.	4r	.	16r	.
.	.	.	.	.	.	.	.	16c'/LL	.
.	.	.	.	.	.	.	.	16f'/	.
.	.	.	.	.	.	.	.	16a'/JJ	.
=5	=5	=5	=5	=5	=5	=5	=5	=5	=5
4r	.	(2A/	<	2c/	<	(2f/	<	8..cc/L	<
.	.	.	.	.	.	.	.	32a/Jkk	.
16r	.	.	.	.	.	.	.	(4f/	.
16c\LL	<	.	.	.	.	.	.	.	.
16A\	.	.	.	.	.	.	.	.	.
16F\JJ	>	.	.	.	.	.	.	.	.
4C/	.	4B-/)	>	4c/	>	8g/L	>	16e/LL	.
.	.	.	.	.	.	.	.	16g/	>
.	.	.	.	.	.	8e/J)	.	16dd/	.
.	.	.	.	.	.	.	.	16cc/JJ)	.
=6	=6	=6	=6	=6	=6	=6	=6	=6	=6
4r	.	2A/	<	2c/	<	(2f/	<	(8cc\L	.
.	.	.	.	.	.	.	.	32dd\LL	.
.	.	.	.	.	.	.	.	32cc\	.
.	.	.	.	.	.	.	.	32b-\	.
.	.	.	.	.	.	.	.	32a\JJJ	.
16r	.	.	.	.	.	.	.	8g/L	<
16c\LL	<	.	.	.	.	.	.	.	.
16A\	.	.	.	.	.	.	.	8f/J)	.
16F\JJ	.	.	.	.	.	.	.	.	.
8C/L	>	8B-/L	>	(8c\L	>	8g/L	>	(24e/LL	>
.	.	.	.	.	.	.	.	24g/	.
.	.	.	.	.	.	.	.	24b-/JJ	.
8E/J	.	8c/J	.	8g\J)	.	8b-/J)	.	16dd\LL	.
.	.	.	.	.	.	.	.	16cc\JJ)	.
=7	=7	=7	=7	=7	=7	=7	=7	=7	=7
8F/L	.	(8c/L	.	(8f\L	.	(8a/L	.	(16cc\LL	.
.	.	.	.	.	.	.	.	16ff\)	.
8BB-/J	.	8B-/J	.	8d\J	.	8g/J	.	(16g\	.
.	.	.	.	.	.	.	.	16dd\JJ)	.
4C/	.	8A/L	.	8c/L	.	8f/	.	(8dd\L	.
.	.	8F/	.	8A/	.	4c/)	.	[8cc\J)	.
4C/	.	8E/	.	8B-/	.	.	.	16cc/LL]	.
.	.	.	.	.	.	.	.	(32b-/L	.
.	.	.	.	.	.	.	.	32a/JJJ	.
.	.	8G/J)	.	8B-/J)	.	8c/	.	32g/LLL	.
.	.	.	.	.	.	.	.	32a/	.
.	.	.	.	.	.	.	.	32b-/	.
.	.	.	.	.	.	.	.	32bn/JJJ)	.
=8	=8	=8	=8	=8	=8	=8	=8	=8	=8
8F\L	>	(8G/L	>	(8B-/L	>	(8c/L	.	(8..cc/L	>
8C\	.	8B-/	.	8c/	.	8g/	>	.	.
.	.	.	.	.	.	.	.	32e/Jkk	.
8F\J	p	8A/J)	p	8c/J)	p	8f/J)	.	8f/)	.
8r	.	8r	.	8r	.	(16c/LL	p	(16cc\LL	p
.	.	.	.	.	.	16f/JJ	.	16ff\JJ)	.
4r	.	4r	.	4r	.	16f/LL)	.	(16ff\LL	.
.	.	.	.	.	.	&((16a/&)	.	16aa\)	.
.	.	.	.	.	.	16a/	.	(16aa\	.
.	.	.	.	.	.	16cc/JJ)	.	16ccc\JJ)	.
=9	=9	=9	=9	=9	=9	=9	=9	=9	=9
(2AA/	<	16r	.	4r	.	(8..cc/L	<	(8..ccc\L	<
.	.	16C'/LL	.	.	.	.	.	.	.
.	.	16F'/	.	.	.	.	.	.	.
.	.	16A'/JJ	<	.	.	.	.	.	.
.	.	.	.	.	.	32a/Jkk)	.	32aa\Jkk)	.
.	.	8c/	.	16r	.	(4f/	.	(4ff\	.
.	.	.	.	16a'\LL	<	.	.	.	.
.	.	4C/	>	16f'\	.	.	.	.	.
.	.	.	.	16c'\JJ	.	.	.	.	.
4BB-/)	>	.	.	[4c\	>	16e/LL	>	16ee\LL	>
.	.	.	.	.	.	16g/	.	16gg\	.
.	.	[8C/	.	.	.	16dd/	.	16ddd\	.
.	.	.	.	.	.	16cc/JJ)	.	16ccc\JJ)	.
=10	=10	=10	=10	=10	=10	=10	=10	=10	=10
2AA/	<	16C/LL]	<	8c\]	.	(16cc\LL	<	(16ccc\LL	<
.	.	16C'/	.	.	.	32bn\L	.	32bb-\L	.
.	.	.	.	.	.	32cc\	.	32cccn\	.
.	.	16F'/	.	8r	.	32dd\	.	32ddd\	.
.	.	.	.	.	.	32cc\	.	32ccc\	.
.	.	16A'/JJ	.	.	.	32b-\	.	32bb-\	.
.	.	.	.	.	.	(32a\JJJ)	.	32aa\JJJ	.
.	.	8c/L	.	16r	.	8g/L	.	8gg\L	.
.	.	.	.	16cc'\LL	<	.	.	.	.
.	.	[8C/J	.	16a'\	.	8f/J)	.	8ff\J)	.
.	.	.	.	16f'\JJ	.	.	.	.	.
8BB-/L	>	(16C/LL]	.	[4c\	>	(32e/LLL	>	(32ee\LLL	>
.	.	.	.	.	.	32f/	.	32ff\	.
.	.	16E/	>	.	.	32g/	.	32gg\	.
.	.	.	.	.	.	32a/	.	32aa\	.
8EE/J	.	16G/	.	.	.	32b-/	.	32bb-\	.
.	.	.	.	.	.	32bn/	.	32bbn\	.
.	.	16B-/JJ)	.	.	.	32dd/)	.	32ddd\	.
.	.	.	.	.	.	32cc/JJJ	.	32ccc\JJJ)	.
=11	=11	=11	=11	=11	=11	=11	=11	=11	=11
(8FF/L	.	(16A/LL	.	(16c/LL]	.	(16cc\LL	.	(16ccc\LL	.
.	.	16F/	.	16A/	.	16ff\)	.	16fff\)	.
8BB-/J)	.	16B-/	.	16d/	.	(16g\	.	(16gg\	.
.	.	16D/JJ)	.	16B-/JJ)	.	16dd\JJ)	.	16ddd\JJ)	.
4C/	.	(8E/	.	(8B-/L	.	(8dd\L	.	(8ddd\L	.
.	.	4F/	.	8A/	.	[8cc\J)	.	[8ccc\J)	.
4CC/	.	.	.	8G/)	.	16cc/LL]	.	(16ccc\LL]	.
.	.	.	.	.	.	(32b-/L	.	32bb-\L	.
.	.	.	.	.	.	32a/JJJ	.	32aa\JJJ	.
.	.	8E/)	.	8G/J	.	32g/LLL	.	32gg\LLL	.
.	.	.	.	.	.	32a/	.	32aa\	.
.	.	.	.	.	.	32b-/	.	32bb-\	.
.	.	.	.	.	.	32bn/JJJ)	.	32bbn\JJJ)	.
=12	=12	=12	=12	=12	=12	=12	=12	=12	=12
8FF'/L	>	(16E/LL	>	[16C/ 16G/LL	>	(8..cc/L	>	(8..ccc\L	>
.	.	16G/	.	(16C/] 16B-/	.	.	.	.	.
8CC'/	.	(16G'/)	.	16C'/ 16B-'/	.	.	.	.	.
.	.	16G'/JJ)	.	16C'/) 16B-'/JJ	.	.	.	.	.
.	.	.	.	.	.	32e/Jkk	.	32ee\Jkk	.
8FF'/J	p	8F/	p	8C/ 8A/	p	8f/)	p	8ff\)	p
8r	.	8r	.	8r	.	8r	.	8r	.
4r	.	(8C/L	.	(8c/L	.	(8a/L	.	8r	.
.	.	8E/J	.	8B-/J	.	8g/J	.	16.r	.
.	.	.	.	.	.	.	.	32cc\	.
=13	=13	=13	=13	=13	=13	=13	=13	=13	=13
4FF/	.	4F/)	.	4A/)	.	4f/)	.	(8..aa\L	.
.	.	.	.	.	.	.	.	32gg\Jkk	.
4r	.	8r	.	8r	.	8r	.	8ff\)	.
.	.	(8c\L	.	(4a\	.	(4cc\	.	8r	.
4r	.	8d\	.	.	.	.	.	8r	.
.	.	8e\J	.	8g\	.	8b-\	.	16.r	.
.	.	.	.	.	.	.	.	32cc\	.
=14	=14	=14	=14	=14	=14	=14	=14	=14	=14
4F\	.	4f\)	.	4c\)	.	4a/)	.	(8..ccc\L	.
.	.	.	.	.	.	.	.	32bb-\Jkk	.
4r	.	8r	.	8r	.	8r	.	8aa\)	.
.	.	(4f\	.	(8a\L	.	(4aa\	.	8r	.
4r	.	.	.	8bn\	.	.	.	4r	.
.	.	8e\)	.	8cc#\J)	.	8gg\	.	.	.
=15	=15	=15	=15	=15	=15	=15	=15	=15	=15
4r	.	(8d/L	.	(8dd\L	.	8ff\L	.	(8aaa\L	.
.	.	8C#/	.	8b-\	.	8ee\	.	8ggg\	.
(4.FF/	.	8D/	.	8a\	.	8dd\	.	8fff\	.
.	.	8E/	.	8g\	.	8cc#\	.	8eee\	.
.	.	8F/	.	8f\	.	8a\)	.	8ddd\	.
8FF#/)	.	8F#/J)	.	8e-\J)	.	8a\J	.	8ccc\J)	.
=16	=16	=16	=16	=16	=16	=16	=16	=16	=16
4GG/	p	16G\LL	p	4d\	p	4g/	p	4bbn\	p
.	.	16g\	.	.	.	.	.	.	.
.	.	16g\	.	.	.	.	.	.	.
.	.	16g\JJ	.	.	.	.	.	.	.
4r	.	16g\LL	.	4r	.	4r	.	4r	.
.	.	16g\	.	.	.	.	.	.	.
.	.	16g\	.	.	.	.	.	.	.
.	.	16g\JJ	.	.	.	.	.	.	.
16r	.	16g\LL	.	16r	.	16r	.	4r	.
16Bn'\LL	.	16g\	.	16d\LL	.	16dd'\LL	.	.	.
16A'\	.	16g\	.	16cn'\	.	16cc\	.	.	.
16B'\JJ	.	16g\JJ	.	16d\JJ	.	16dd'\JJ	.	.	.
=17	=17	=17	=17	=17	=17	=17	=17	=17	=17
(4Bn\	.	16g\LL	.	(4d#\	.	(4dd#\	.	4r	.
.	.	16g\	.	.	.	.	.	.	.
.	.	16g\	.	.	.	.	.	.	.
.	.	16g\JJ	.	.	.	.	.	.	.
8c\)	.	16g\LL	.	8e\)	.	8ee\)	.	(8.ggg^\L	.
.	.	16g\	.	.	.	.	.	.	.
8r	.	16g\	.	8r	.	8r	.	.	.
.	.	16g\JJ	.	.	.	.	.	32eee\LL	.
.	.	.	.	.	.	.	.	32ccc\JJJ	.
16r	.	16g\LL	.	16r	.	16r	.	8gg'\)	.
16c'\LL	.	16g\	.	16e'\LL	.	16ee'\LL	.	.	.
16B'\	.	16g\	.	16dn'\	.	16dd#'\	.	8r	.
16c'\JJ	.	16g\JJ	.	16e'\JJ	.	16ee'\JJ	.	.	.
=18	=18	=18	=18	=18	=18	=18	=18	=18	=18
(4c#\	.	16g\LL	.	(4e\	.	(4ee\	.	4r	.
.	.	16g\	.	.	.	.	.	.	.
.	.	16g\	.	.	.	.	.	.	.
.	.	16g\JJ	.	.	.	.	.	.	.
8d\)	.	16g\LL	.	8f\)	.	8ff\)	.	(8.ggg\L	>
.	.	16g\	.	.	.	.	.	.	.
8r	.	16g\	.	8r	.	8r	.	.	.
.	.	16g\JJ	.	.	.	.	.	32fff\LL	.
.	.	.	.	.	.	.	.	32ddd\JJJ	.
16r	.	16g\LL	.	16r	.	16r	.	8gg'\)	.
16d'\LL	.	16g\	.	16f'\LL	.	16ff'\LL	.	.	.
16c#'\	.	16g\	.	16e'\	.	16ee'\	.	8r	.
16d'\JJ	.	16g\JJ	.	16f'\JJ	.	16ff'\JJ	.	.	.
=19	=19	=19	=19	=19	=19	=19	=19	=19	=19
(4d\	>	16g\LL	.	(4f#\	>	(4ff#\	>	2.r	.
.	.	16g\	.	.	.	.	.	.	.
.	.	16g\	.	.	.	.	.	.	.
.	.	16g\JJ	.	.	.	.	.	.	.
4e\	.	16g\LL	.	4g\	.	4gg\	.	.	.
.	.	16g\	.	.	.	.	.	.	.
.	.	16g\	.	.	.	.	.	.	.
.	.	16g\JJ	.	.	.	.	.	.	.
8f\L)	.	16g\LL	.	4a-\)	.	4aa-\)	.	.	.
.	.	16g\	.	.	.	.	.	.	.
8FF'/J	.	16f\	.	.	.	.	.	.	.
.	.	16e-\JJ	.	.	.	.	.	.	.
=20	=20	=20	=20	=20	=20	=20	=20	=20	=20
4BB-/	pp	16d\LL	pp	16fn\LL	pp	(2aa-\	pp	16r	.
.	.	16d\	.	16f\	.	.	.	16ddd'\LL	pp
.	.	16d\	.	16f\	.	.	.	16ccc#'\	.
.	.	16d\JJ	.	16f\JJ	.	.	.	16ddd'\JJ	.
16r	.	16d\LL	.	16f\LL	.	.	.	4aaa-\	.
16BB-'/LL	.	16d\	.	16f\	.	.	.	.	.
16AA'/	.	16d\	.	16f\	.	.	.	.	.
16BB-'/JJ	.	16d\JJ	.	16f\JJ	.	.	.	.	.
4E-'\	.	16d\LL	.	16e-\LL	.	[4gg\)	.	16r	.
.	.	16d\	.	16e-\	.	.	.	16dd'\LL	.
.	.	16d\	.	16e-\	.	.	.	16cc#'\	.
.	.	16d\JJ	.	16e-\JJ	.	.	.	16dd'\JJ	.
=21	=21	=21	=21	=21	=21	=21	=21	=21	=21
4AA-'/	.	16c\LL	.	16e-\LL	.	(2gg\]	.	16r	.
.	.	16c\	.	16e-\	.	.	.	16cccn'\LL	.
.	.	16c\	.	16e-\	.	.	.	16bbn\	.
.	.	16c\JJ	.	16e-\JJ	.	.	.	16ccc'\JJ	.
16r	.	16c\LL	.	16e-\LL	.	.	.	4ggg'\	.
16AA-'/LL	.	16c\	.	16e-\	.	.	.	.	.
16GG'/	.	16c\	.	16e-\	.	.	.	.	.
16AA-'/JJ	.	16c\JJ	.	16e-\JJ	.	.	.	.	.
4D'/	.	16c\LL	.	16d\LL	.	[4ff\)	.	16r	.
.	.	16c\	.	16d\	.	.	.	16cc'\LL	.
.	.	16c\	.	16d\	.	.	.	16bn'\	.
.	.	16c\JJ	.	16d\JJ	.	.	.	16cc'\JJ	.
=22	=22	=22	=22	=22	=22	=22	=22	=22	=22
4GG'/	.	16Bn/LL	.	16d\LL	.	(2ff\]	.	16r	.
.	.	16B/	.	16d\	.	.	.	16bbn'\LL	.
.	.	16B/	.	16d\	.	.	.	16aa#'\	.
.	.	16B/JJ	.	16d\JJ	.	.	.	16bb'\JJ	.
16r	.	16B/LL	.	16d\LL	.	.	.	4fff'\	.
16GG'/LL	.	16B/	.	16d\	.	.	.	.	.
16FF#'/	.	16B/	.	16d\	.	.	.	.	.
16GG'/JJ	.	16B/JJ	.	16d\JJ	.	.	.	.	.
4C'/	.	16G/LL	.	16c\LL	.	4ee-\)	.	16r	.
.	.	16G/	.	16c\	.	.	.	16cc'\LL	.
.	.	16G/	.	16c\	.	.	.	16bn'\	.
.	.	16G/JJ	.	16c\JJ	.	.	.	16cc'\JJ	.
=23	=23	=23	=23	=23	=23	=23	=23	=23	=23
16r	.	16An/LL	.	16c/LL	.	(4dd\	.	8.r	.
16FF#'/LL	.	16A/	.	16c/	.	.	.	.	.
16EE#'/	.	16A/	.	16c/	.	.	.	.	.
16FF#'/JJ	.	16A/JJ	.	16c/JJ	.	.	.	16ccc'\	.
16r	.	16G/LL	.	16c/LL	.	4ee-\	.	16bb-'\LL	.
16GG'/LL	.	16G/	.	16c/	.	.	.	16cccn'\JJ	.
16FF#'/	.	16G/	.	16c/	.	.	.	16r	.
16GG'/JJ	.	16G/JJ	.	16c/JJ	.	.	.	16gg'\	.
16r	.	16F/LL	.	16G/LL	.	4bn\)	.	16ff#'\LL	.
16GG'/LL	.	16F/	.	16G/	.	.	.	16gg'\JJ	.
16FF#'/	.	16F/	.	16G/	.	.	.	16r	.
16GG'/JJ	.	16F/JJ	.	16G/JJ	.	.	.	16gg'\	.
=24	=24	=24	=24	=24	=24	=24	=24	=24	=24
8C/	p	8E/	p	8G/	p	8cc\	p	8cc\	p
8r	.	8r	.	8r	.	8r	.	(8cc\L	.
4r	.	4r	.	4r	.	4r	.	8gg\	.
.	.	.	.	.	.	.	.	8ee\	.
4r	.	4r	.	4r	.	4r	.	8ccc\	.
.	.	.	.	.	.	.	.	8aa\J)	.
=25	=25	=25	=25	=25	=25	=25	=25	=25	=25
2.r	.	2.r	.	(4cc\	.	[4dd\	.	(4ff#\	.
.	.	.	.	.	.	.	.	eeq/LLL	.
.	.	.	.	.	.	.	.	ff#q/JJJ	.
.	.	.	.	8b-'\)	.	8dd'\]	.	8gg'\L	.
.	.	.	.	8r	.	8r	.	8dd\)	.
.	.	.	.	4r	.	4r	.	8bb-\	.
.	.	.	.	.	.	.	.	&(8gg\J&)	.
=26	=26	=26	=26	=26	=26	=26	=26	=26	=26
2.r	.	2.r	.	(4b-\	.	[4cc\	.	4ee\	.
.	.	.	.	.	.	.	.	(ddq/LLL	.
.	.	.	.	.	.	.	.	eeq/JJJ	.
.	.	.	.	8a'\)	.	(8cc'\]	.	8ff'\	.
.	.	.	.	8r	.	8a\L	.	(8aa\L)	.
.	.	.	.	4r	.	8ff\	.	8fff\	.
.	.	.	.	.	.	8dd\J)	.	8ddd\J)	.
=27	=27	=27	=27	=27	=27	=27	=27	=27	=27
4r	.	(8f\L	.	(8G#/L	.	(8bn/L	.	(8bbn\L	.
.	.	8e\	.	8A/	.	8cc/	.	8ccc\	.
4r	.	8F\	.	8c/	.	8d/	.	8dd\	.
.	.	8F#\	.	[8d/	.	8cc/	.	8aa\	.
[4GG/	.	8G\	.	8d/]	.	8b/	.	8gg\	.
.	.	[8g\J)	.	8Bn/J)	.	8dd/J)	.	8ff\J	.
=28	=28	=28	=28	=28	=28	=28	=28	=28	=28
(8GG/L]	p	(8g\L]	p	4c\	p	4cc\	p	4ee\)	p
16.C/L	.	8c\J)	.	.	.	.	.	.	.
32E/JJk)	.	.	.	.	.	.	.	.	.
(8G\L	<	4r	.	4r	.	4r	.	4r	.
8E\	.	.	.	.	.	.	.	.	.
8c\	>	4r	.	4r	.	4r	.	8r	.
8A\J)	.	.	.	.	.	.	.	(8ee\	<
=29	=29	=29	=29	=29	=29	=29	=29	=29	=29
(4F#\	.	8r	.	8r	.	8r	.	8aa\L	.
.	.	(8a\L	p	(8d\L	p	(8cc\L	.	8dd\)	>
(8G'\L)	<	8g\J)	.	8b-\	>	8b-\J)	.	8dd'\J	.
8D\	.	8r	.	8g\J)	.	(4dd\	<	8r	.
8B-\	>	4r	.	4r	.	.	.	8r	.
8G\J)	.	.	.	.	.	8gg\)	>	(8dd\	<
=30	=30	=30	=30	=30	=30	=30	=30	=30	=30
(4E\	.	8r	.	8r	.	8r	.	8gg\L	>
.	.	(8g\L	.	(8c\L	<	(8b-/L	.	8cc\	.
8Fn'\)	.	(8f\J)	.	8a-\	>	8a-/J)	.	8cc'\J)	.
(8AA-/L	.	8A-\L	.	8f\J)	.	(4cc\	<	8r	.
8F/	.	8f\	.	4r	.	.	.	8r	.
8D-/J)	.	8d-\J)	.	.	.	8ff\)	>	(8aa-\	.
=31	=31	=31	=31	=31	=31	=31	=31	=31	=31
4BBn/	.	4Bn/	.	8r	.	8r	.	8fff\L	.
.	.	.	.	8dd\	.	8ff\	.	8gg\J)	.
4C/	.	4c/	.	8r	.	8r	.	8r	.
.	.	.	.	8cc\	.	8ee-\	.	8gg\	.
4FF#/	.	4F#/	.	8r	.	8r	.	8r	.
.	.	.	.	8cc\	.	8dd\	.	8aan\	.
=32	=32	=32	=32	=32	=32	=32	=32	=32	=32
(8.GG/L	.	(8.G/L	.	2cc\	.	2een\	.	2gg\	.
32C/LL	.	32c/LL	.	.	.	.	.	.	.
32E/JJJ	.	32e/JJJ	.	.	.	.	.	.	.
32G/LLL	.	32g/LLL	.	.	.	.	.	.	.
32F/	.	32f/	.	.	.	.	.	.	.
32E/	.	32e/	.	.	.	.	.	.	.
32D/	.	32d/	.	.	.	.	.	.	.
32C/	.	32c/	.	.	.	.	.	.	.
32BBn/	.	32Bn/	.	.	.	.	.	.	.
32AA/	.	32A/	.	.	.	.	.	.	.
32AA-/JJJ	.	32A-/JJJ	.	.	.	.	.	.	.
16GG'/LL)	p	16G'/LL)	p	8G'\ 8f'\L	p	8ff'\L	p	8bbn\L	p
16FF'/	.	16F'/	.	.	.	.	.	.	.
16EE'/	.	16E'/	.	8G'\ 8f'\J	.	8ff'\J	.	8bb\J	.
16DD/JJ	.	16D'/JJ	.	.	.	.	.	.	.
=33	=33	=33	=33	=33	=33	=33	=33	=33	=33
8CC'/	.	8C/L	.	8G'/ 8e'/	<	8ee'\	.	8ccc'\	.
(8E\L	<	8C/	.	8r	.	16c'/LL	<	8r	.
.	.	.	.	.	.	16d'/JJ	.	.	.
8G\	.	8C/	.	4r	.	16e'/LL	.	4r	.
.	.	.	.	.	.	16f'/	.	.	.
8c\J	.	8C/	.	.	.	16g'/	.	.	.
.	.	.	.	.	.	16a'/JJ	.	.	.
(4Bn\)	>	8C/	.	4r	.	(8..g/L	>	(4d/	>
.	.	8C/J	.	.	.	.	.	.	.
.	.	.	.	.	.	32f/Jkk)	.	.	.
=34	=34	=34	=34	=34	=34	=34	=34	=34	=34
8c\L)	<	8C/	.	8r	.	8e/	.	8G/)	.
8c\	.	8r	.	(8e\L	<	(8g\L	<	16cc'\LL	<
.	.	.	.	.	.	.	.	16dd'\JJ	.
8c\	.	4r	.	8g\	.	8cc\	.	16ee'\LL	.
.	.	.	.	.	.	.	.	16ff'\	.
8c\	.	.	.	8cc\J	.	8ee\J)	.	16gg'\	.
.	.	.	.	.	.	.	.	16aa'\JJ	.
8c\	>	4r	.	4bn\	>	(4dd\	>	(8..gg\L	>
8c\J	.	.	.	.	.	.	.	.	.
.	.	.	.	.	.	.	.	32ff\Jkk)	.
=35	=35	=35	=35	=35	=35	=35	=35	=35	=35
8c\L	<	8C/L	.	8cc\)	p	8g/)	.	8ee\	.
(8E\	.	8C/	<	8r	.	(32c/LLL	<	8r	.
.	.	.	.	.	.	32Bn/	.	.	.
.	.	.	.	.	.	32d/	.	.	.
.	.	.	.	.	.	32c/JJJ	.	.	.
8G\	.	8C/	.	4r	.	32e/LLL	.	4r	.
.	.	.	.	.	.	32d/	.	.	.
.	.	.	.	.	.	32f/	.	.	.
.	.	.	.	.	.	32e/JJJ	.	.	.
8c\J	.	8C/	.	.	.	32g/LLL	.	.	.
.	.	.	.	.	.	32f#/	.	.	.
.	.	.	.	.	.	32a/	.	.	.
.	.	.	.	.	.	32g/JJJ)	.	.	.
16Bn\LL	>	8C/	.	4r	.	[8g/L	>	(16d/LL	<
16A\	.	.	.	.	.	.	.	16c/	.
16B\	.	8C/J	.	.	.	(32g/LL]	.	16d/	>
.	.	.	.	.	.	32g#/	.	.	.
16G\JJ)	.	.	.	.	.	32a/	.	16Bn/JJ)	.
.	.	.	.	.	.	32fn/JJJ	.	.	.
=36	=36	=36	=36	=36	=36	=36	=36	=36	=36
(8c'\L	<	8C/	.	8r	.	8e'/)	.	8G/	.
8c'\	.	8r	.	(8e\L	>	(8g\L	<	(32cc\LLL	<
.	.	.	.	.	.	.	.	32bn\	.
.	.	.	.	.	.	.	.	32dd\	.
.	.	.	.	.	.	.	.	32cc\JJJ	.
8c'\	.	4r	.	8g\	.	8cc\	.	32ee\LLL	.
.	.	.	.	.	.	.	.	32dd\	.
.	.	.	.	.	.	.	.	32ff\	.
.	.	.	.	.	.	.	.	32ee\JJJ	.
8c'\	.	.	.	8cc\J	.	8ee\J	.	32gg\LLL	.
.	.	.	.	.	.	.	.	32ff#\	.
.	.	.	.	.	.	.	.	32aa\	.
.	.	.	.	.	.	.	.	32gg\JJJ	.
8c'\	>	4r	.	16bn\LL	>	16dd\LL	>	[8gg\L)	>
.	.	.	.	16a\	.	16cc\	.	.	.
8c'\J)	.	.	.	16b\	.	16dd\	.	(32gg\LL]	.
.	.	.	.	.	.	.	.	32gg#\	.
.	.	.	.	16g\JJ)	.	16bn\JJ)	.	32aa\	.
.	.	.	.	.	.	.	.	32ffn\JJJ)	.
=37	=37	=37	=37	=37	=37	=37	=37	=37	=37
8c\	p	2.r	.	8cc\	p	8g/	p	8ee'\	p
8r	.	.	.	8r	.	8r	.	32r	.
.	.	.	.	.	.	.	.	(32ee\LLL	.
.	.	.	.	.	.	.	.	32ff\	.
.	.	.	.	.	.	.	.	32dd\JJJ	.
4r	.	.	.	4r	.	8r	.	8cc'\)	.
.	.	.	.	.	.	32r	.	32r	.
.	.	.	.	.	.	(32e/LLL	.	(32g/LLL	.
.	.	.	.	.	.	32f/	.	32a/	.
.	.	.	.	.	.	32d/JJJ	.	32f/JJJ	.
4r	.	.	.	8r	.	8c'/)	.	8e'/)	.
.	.	.	.	32r	.	8r	.	32r	.
.	.	.	.	(32G/LLL	.	.	.	(32e/LLL	.
.	.	.	.	32A/	.	.	.	32f/	.
.	.	.	.	32F/JJJ	.	.	.	32d/JJJ	.
=38	=38	=38	=38	=38	=38	=38	=38	=38	=38
8r	.	4r	.	8E'/)	.	4r	.	8c'/)	.
32r	.	.	.	8r	.	.	.	8r	.
(32EE/LLL	pp	.	.	.	.	.	.	.	.
32FF/	.	.	.	.	.	.	.	.	.
32DD/JJJ	.	.	.	.	.	.	.	.	.
8CC'/)	.	8c\	p	8g\	pp	8e/	pp	8cc\	pp
32r	.	8r	.	8r	.	8r	.	8r	.
(32EE/LLL	.	.	.	.	.	.	.	.	.
32FF/	.	.	.	.	.	.	.	.	.
32DD/JJJ	.	.	.	.	.	.	.	.	.
8CC'/)	.	8c\	.	8g\	.	8e/	.	8cc\	.
32r	.	8r	.	8r	.	8r	.	8r	.
(32EE/LLL	.	.	.	.	.	.	.	.	.
32FF/	.	.	.	.	.	.	.	.	.
32DD/JJJ	.	.	.	.	.	.	.	.	.
=39	=39	=39	=39	=39	=39	=39	=39	=39	=39
8CC'/)	.	8c\	.	8g\	.	8e/	.	(2cc\	.
8r	.	8r	.	8r	.	8r	.	.	.
4r	.	4r	.	4r	.	4r	.	.	.
4r	.	4r	.	4r	.	4r	.	4a/	.
=40	=40	=40	=40	=40	=40	=40	=40	=40	=40
2.r	.	2.r	.	2.r	.	2.r	.	4f#/	.
.	.	.	.	.	.	.	.	4d#/	.
.	.	.	.	.	.	.	.	4c/)	.
=41	=41	=41	=41	=41	=41	=41	=41	=41	=41
8BBn/	p	8D#/	p	8F#/	p	8r	.	8Bn/L	p
8r	.	8r	.	8r	.	8Bn/ 8f#/	p	8ff#\J	.
8BB/	.	8D#/	.	8F#/	.	8r	.	8r	.
8r	.	8r	.	8r	.	8B/ 8f#/	.	8dd#\	.
8BB/	.	8D#/	.	8F#/	.	8r	.	8r	.
8r	.	8r	.	8r	.	8B/ 8f#/	.	8a/	.
=42	=42	=42	=42	=42	=42	=42	=42	=42	=42
8BBn/	.	8E/	.	8G/	.	8r	.	8g/L	.
8r	.	8r	.	8r	.	8Bn/ 8g/	.	8bbn\J	.
8BB/	.	8E/	.	8G/	.	8r	.	8r	.
8r	.	8r	.	8r	.	8B/ 8g/	.	8gg\	.
8BB/	.	8E/	.	8G/	.	8r	.	8r	.
8r	.	8r	.	8r	.	8B/ 8g/	.	8ee\	.
=43	=43	=43	=43	=43	=43	=43	=43	=43	=43
32BBn/LLL	.	32Dn/ 32G/LLL	.	8r	.	8r	.	(8ffn\	.
32BB/	.	32D/ 32G/	.	.	.	.	.	.	.
32BB/	.	32D/ 32G/	.	.	.	.	.	.	.
32BB/JJ	.	32D/ 32G/JJ	.	.	.	.	.	.	.
8BB'/J	.	8D'/ 8G'/J	.	32f\LLL	.	32g/LLL	.	4ddd\)	.
.	.	.	.	32f\	.	32g/	.	.	.
.	.	.	.	32f\	.	32g/	.	.	.
.	.	.	.	32f\JJJ	.	32g/JJJ	.	.	.
32BB/LLL	.	32D/ 32G/LLL	.	8f'\L	.	8g'/L	.	.	.
32BB/	.	32D/ 32G/	.	.	.	.	.	.	.
32BB/	.	32D/ 32G/	.	.	.	.	.	.	.
32BB/JJ	.	32D/ 32G/JJ	.	.	.	.	.	.	.
.	.	.	.	.	.	.	.	eeeq/	.
8BB'/J	.	8D'/ 8G'/J	.	32f\LL	.	32g/LL	.	16.ddd'\LL	.
.	.	.	.	32f\	.	32g/	.	.	.
.	.	.	.	32f\	.	32g/	.	.	.
.	.	.	.	32f\JJJ	.	32g/JJJ	.	32ccc'\JJk	.
.	.	.	.	.	.	.	.	cccq/	.
32BB/LLL	.	32D/ 32G/LLL	.	8f'\L	.	8g'/L	.	16.bbn'\LL	.
32BB/	.	32D/ 32G/	.	.	.	.	.	.	.
32BB/	.	32D/ 32G/	.	.	.	.	.	.	.
32BB/JJ	.	32D/ 32G/JJ	.	.	.	.	.	32aa'\JJk	.
.	.	.	.	.	.	.	.	aaq/	.
8BB/J	.	8D'/ 8G'/J	.	32f\LL	.	32g/LL	.	16.gg'\LL	.
.	.	.	.	32f\	.	32g/	.	.	.
.	.	.	.	32f\	.	32g/	.	.	.
.	.	.	.	32f\JJJ	.	32g/JJJ	.	32ff'\JJk	.
=44	=44	=44	=44	=44	=44	=44	=44	=44	=44
32C/LLL	.	32E/ 32G/LLL	.	8e'\L	.	8g'/L	.	(8dd#\	.
32C/	.	32E/ 32G/	.	.	.	.	.	.	.
32C/	.	32E/ 32G/	.	.	.	.	.	.	.
32C/JJ	.	32E/ 32G/JJ	.	.	.	.	.	.	.
8C'/J	.	8E'/ 8G'/J	.	32e\LL	.	32g/LL	.	4ee\)	.
.	.	.	.	32e\	.	32g/	.	.	.
.	.	.	.	32e\	.	32g/	.	.	.
.	.	.	.	32e\JJJ	.	32g/JJJ	.	.	.
32C/LLL	.	32E/ 32G/LLL	.	8e'\L	.	8g'/L	.	.	.
32C/	.	32E/ 32G/	.	.	.	.	.	.	.
32C/	.	32E/ 32G/	.	.	.	.	.	.	.
32C/JJ	.	32E/ 32G/JJ	.	.	.	.	.	.	.
8C'/J	.	8E'/ 8G'/J	.	32e\LL	.	32g/LL	.	(8ee\L	.
.	.	.	.	32e\	.	32g/	.	.	.
.	.	.	.	32e\	.	32g/	.	.	.
.	.	.	.	32e\JJJ	.	32g/JJJ	.	.	.
32BB-/LLL	.	32D/LLL	.	8d'\L	.	8g#'/L	.	8eee\)	.
32BB-/	.	32D/	.	.	.	.	.	.	.
32BB-/	.	32D/	.	.	.	.	.	.	.
32BB-/JJ	.	32D/JJ	.	.	.	.	.	.	.
8BB-'/J	.	8D'/J	.	32d\LL	.	32g#/LL	.	8eee\J	.
.	.	.	.	32d\	.	32g#/	.	.	.
.	.	.	.	32d\	.	32g#/	.	.	.
.	.	.	.	32d\JJJ	.	32g#/JJJ	.	.	.
=45	=45	=45	=45	=45	=45	=45	=45	=45	=45
32AA/LLL	.	32E/LLL	.	8c#'\L	.	8a'/L	.	4.eee\	.
32AA/	.	32E/	.	.	.	.	.	.	.
32AA/	.	32E/	.	.	.	.	.	.	.
32AA/JJ	.	32E/JJ	.	.	.	.	.	.	.
8AA'/J	.	8E'/J	.	32c#\LL	.	32a/LL	.	.	.
.	.	.	.	32c#\	.	32a/	.	.	.
.	.	.	.	32c#\	.	32a/	.	.	.
.	.	.	.	32c#\JJJ	.	32a/JJJ	.	.	.
32AA/LLL	.	32E/LLL	.	8c#'\L	.	8a/L	.	.	.
32AA/	.	32E/	.	.	.	.	.	.	.
32AA/	.	32E/	.	.	.	.	.	.	.
32AA/JJ	.	32E/JJ	.	.	.	.	.	.	.
.	.	.	.	.	.	.	.	fffq/	.
8AA'/J	.	8E'/J	.	32c#\LL	.	32a/LL	.	16.eee'\LL	.
.	.	.	.	32c#\	.	32a/	.	.	.
.	.	.	.	32c#\	.	32a/	.	.	.
.	.	.	.	32c#\JJJ	.	32a/JJJ	.	32ddd'\JJk	.
.	.	.	.	.	.	.	.	dddq/	.
32C#/LLL	.	32E/LLL	.	8e'\L	.	8gn'/ 8a'/L	.	16.ccc#'\LL	.
32C#/	.	32E/	.	.	.	.	.	.	.
32C#/	.	32E/	.	.	.	.	.	.	.
32C#/JJ	.	32E/JJ	.	.	.	.	.	32bb-'\JJk	.
.	.	.	.	.	.	.	.	bb-q/	.
8C#'/J	.	8E'/J	.	32e\LL	.	32g/ 32a/LL	.	16.aa'\LL	.
.	.	.	.	32e\	.	32g/ 32a/	.	.	.
.	.	.	.	32e\	.	32g/ 32a/	.	.	.
.	.	.	.	32e\JJJ	.	32g/ 32a/JJJ	.	32gg'\JJk	.
=46	=46	=46	=46	=46	=46	=46	=46	=46	=46
32D\LLL	.	32F/LLL	.	8d'\L	.	8f'/ 8a'/L	.	(8ff\	.
32D\	.	32F/	.	.	.	.	.	.	.
32D\	.	32F/	.	.	.	.	.	.	.
32D\JJ	.	32F/JJ	.	.	.	.	.	.	.
8D'\J	.	8F'/J	.	32d\LL	.	32f/ 32a/LL	.	4aa\	.
.	.	.	.	32d\	.	32f/ 32a/	.	.	.
.	.	.	.	32d\	.	32f/ 32a/	.	.	.
.	.	.	.	32d'\JJJ	.	32f/ 32a/JJJ	.	.	.
32D\LLL	.	32F/LLL	.	8d'\L	.	8f'/ 8a'/L	.	.	.
32D\	.	32F/	.	.	.	.	.	.	.
32D\	.	32F/	.	.	.	.	.	.	.
32D\JJ	.	32F/JJ	.	.	.	.	.	.	.
8D'\J	.	8F'/J	.	32d\LL	.	32f/ 32a/LL	.	4ddd\	.
.	.	.	.	32d\	.	32f/ 32a/	.	.	.
.	.	.	.	32d\	.	32f/ 32a/	.	.	.
.	.	.	.	32d\JJJ	.	32f/ 32a/JJJ	.	.	.
32FF/LLL	.	32D/LLL	.	8d'\L	.	8f'/ 8a'/L	.	.	.
32FF/	.	32D/	.	.	.	.	.	.	.
32FF/	.	32D/	.	.	.	.	.	.	.
32FF/JJ	.	32D/JJ	.	.	.	.	.	.	.
8FF'/J	.	8D'/J	.	32d\LL	.	32A/ 32f/LL	.	8f/)	.
.	.	.	.	32d\	.	32A/ 32f/	.	.	.
.	.	.	.	32d\	.	32A/ 32f/	.	.	.
.	.	.	.	32d\JJJ	.	32A/ 32f/JJJ	.	.	.
=47	=47	=47	=47	=47	=47	=47	=47	=47	=47
32GG/LLL	f	8r	.	8r	.	8r	.	(8e-/L	f
32GG/	.	.	.	.	.	.	.	.	.
32GG/	.	.	.	.	.	.	.	.	.
32GG/JJJ	.	.	.	.	.	.	.	.	.
8r	.	32G/LLL	f	32B-/LLL	f	32e-/LLL	f	8b-/J	.
.	.	32G/	.	32B-/	.	32e-/	.	.	.
.	.	32G/	.	32B-/	.	32e-/	.	.	.
.	.	32G/JJJ	.	32B-/JJJ	.	32e-/JJJ	.	.	.
32AA/LLL	.	8r	.	8r	.	8r	.	8d/L	.
32AA/	.	.	.	.	.	.	.	.	.
32AA/	.	.	.	.	.	.	.	.	.
32AA/JJJ	.	.	.	.	.	.	.	.	.
8r	.	32F/LLL	.	32A/LLL	.	32d/LLL	.	8a/J	.
.	.	32F/	.	32A/	.	32d/	.	.	.
.	.	32F/	.	32A/	.	32d/	.	.	.
.	.	32F/JJJ	.	32A/JJJ	.	32d/JJJ	.	.	.
32AA/LLL	.	8r	.	8r	.	8r	.	8A/L	.
32AA/	.	.	.	.	.	.	.	.	.
32AA/	.	.	.	.	.	.	.	.	.
32AA/JJJ	.	.	.	.	.	.	.	.	.
8r	.	32E/LLL	.	32G/LLL	.	32cc#\LLL	.	8c#/J)	.
.	.	32E/	.	32G/	.	32cc#\	.	.	.
.	.	32E/	.	32G/	.	32cc#\	.	.	.
.	.	32E/JJJ	.	32G/JJJ	.	32cc#\JJJ	.	.	.
=48	=48	=48	=48	=48	=48	=48	=48	=48	=48
32BB-/LLL	p	32D/LLL	p	32G#/LLL	p	8r	.	8d/L	p
32BB-/	.	32D/	.	32G#/	.	.	.	.	.
32BB-/	.	32D/	.	32G#/	.	.	.	.	.
32BB-/JJ	.	32D/JJ	.	32G#/JJ	.	.	.	.	.
8BB-'/J	.	8D'/J	.	8G#'/J	.	32dd\LLL	p	8ff\J	.
.	.	.	.	.	.	32dd\	.	.	.
.	.	.	.	.	.	32dd\	.	.	.
.	.	.	.	.	.	32dd\JJJ	.	.	.
32BBn/LLL	.	32D/LLL	.	32G#/LLL	.	8dd'\L	.	8dd\L	.
32BB/	.	32D/	.	32G#/	.	.	.	.	.
32BB/	.	32D/	.	32G#/	.	.	.	.	.
32BB/JJ	.	32D/JJ	.	32G#/JJ	.	.	.	.	.
8BB'/J	.	8D'/J	.	8G#'/J	.	32dd\LL	.	8fff\J	.
.	.	.	.	.	.	32dd\	.	.	.
.	.	.	.	.	.	32dd\	.	.	.
.	.	.	.	.	.	32dd\JJJ	.	.	.
32C#/LLL	.	32E/LLL	.	32A/LLL	.	8g'/L	.	8eee\L	.
32C#/	.	32E/	.	32A/	.	.	.	.	.
32C#/	.	32E/	.	32A/	.	.	.	.	.
32C#/JJ	.	32E/JJ	.	32A/JJ	.	.	.	.	.
8C#/J	.	8E'/J	.	8A'/J	.	32g/LL	.	8gg\J	.
.	.	.	.	.	.	32g/	.	.	.
.	.	.	.	.	.	32g/	.	.	.
.	.	.	.	.	.	32g/JJJ	.	.	.
=49	=49	=49	=49	=49	=49	=49	=49	=49	=49
32D/LLL	.	32F/LLL	.	32A/LLL	.	8r	.	(8ff\L	.
32D/	.	32F/	.	32A/	.	.	.	.	.
32D/	.	32F/	.	32A/	.	.	.	.	.
32D/JJJ	.	32F/JJJ	.	32A/JJJ	.	.	.	.	.
8r	.	8r	.	8r	.	32f/LLL	.	8ddd\J	.
.	.	.	.	.	.	32f/	.	.	.
.	.	.	.	.	.	32f/	.	.	.
.	.	.	.	.	.	32f/JJJ	.	.	.
32GG/LLL	.	32B-/LLL	.	8r	.	8r	.	8ee-\L	.
32GG/	.	32B-/	.	.	.	.	.	.	.
32GG/	.	32B-/	.	.	.	.	.	.	.
32GG/JJJ	.	32B-/JJJ	.	.	.	.	.	.	.
8r	.	8r	.	32B-/LLL	.	32G/ 32e-/LLL	.	8bb-\J	.
.	.	.	.	32B-/	.	32G/ 32e-/	.	.	.
.	.	.	.	32B-/	.	32G/ 32e-/	.	.	.
.	.	.	.	32B-/JJJ	.	32G/ 32e-/JJJ	.	.	.
32AA/LLL	.	32G/LLL	.	8r	.	8r	.	8a\L	.
32AA/	.	32G/	.	.	.	.	.	.	.
32AA/	.	32G/	.	.	.	.	.	.	.
32AA/JJJ	.	32G/JJJ	.	.	.	.	.	.	.
8r	.	8r	.	32E/ 32G/LLL	.	32c#/LLL	.	8cc#\J)	.
.	.	.	.	32E/ 32G/	.	32c#/	.	.	.
.	.	.	.	32E/ 32G/	.	32c#/	.	.	.
.	.	.	.	32E/ 32G/JJJ	.	32c#/JJJ	.	.	.
=50	=50	=50	=50	=50	=50	=50	=50	=50	=50
8.DD/L	pp	(2F/	pp	2A/	pp	(2d/	pp	8dd\	p
.	.	.	.	.	.	.	.	8r	.
16EE'/Jk	.	.	.	.	.	.	.	.	.
16FF'/LL	.	.	.	.	.	.	.	4r	.
16GG'/	.	.	.	.	.	.	.	.	.
16AA'/	.	.	.	.	.	.	.	.	.
16BB-'/JJ	.	.	.	.	.	.	.	.	.
(8..AA/L	.	4E/	.	[4A/	.	4c#/	pp	8r	.
.	.	.	.	.	.	.	.	16Bn'/LL	.
.	.	.	.	.	.	.	.	16c#'/JJ	.
32GG/Jkk)	.	.	.	.	.	.	.	.	.
=51	=51	=51	=51	=51	=51	=51	=51	=51	=51
8FF/	.	8F/)	.	8A/]	.	8d/)	.	16d'/LL	.
.	.	.	.	.	.	.	.	16e'/	.
8r	.	8r	.	8r	.	16d'/LL	.	16f'/	.
.	.	.	.	.	.	16e'/JJ	.	16g'/JJ	.
4r	.	16D'/LL	.	4r	.	16f'/LL	.	8a/	.
.	.	16E'/	.	.	.	16g'/	.	.	.
.	.	16F'/	.	.	.	16a/	.	8r	.
.	.	16G'/JJ	.	.	.	16b-'/JJ	.	.	.
16AA'/LL	.	[4A/	.	16c#'\LL	.	(8..a/L	.	4r	.
16BBn'/	.	.	.	16d'\	.	.	.	.	.
16C'/	.	.	.	16d#'\	.	.	.	.	.
16C#'/JJ	.	.	.	16e'\JJ	.	.	.	.	.
.	.	.	.	.	.	32g/Jkk)	.	.	.
=52	=52	=52	=52	=52	=52	=52	=52	=52	=52
16D'\LL	.	8A/]	.	8dn\	.	8f/	.	8r	.
16E'\	.	.	.	.	.	.	.	.	.
16F'\	.	8r	.	8r	.	8r	.	16dd'\LL	.
16G'\JJ	.	.	.	.	.	.	.	16ee'\JJ	.
8A'\	.	4r	.	16d'\LL	.	4r	.	16ff'\LL	.
.	.	.	.	16e'\	.	.	.	16gg'\	.
8r	.	.	.	16f'\	.	.	.	16aa'\	.
.	.	.	.	16g'\JJ	.	.	.	16bb-'\JJ	.
4r	.	4r	.	(4a\	pp	(4cc#\	pp	(8..aa\L	pp
.	.	.	.	.	.	.	.	32gg\Jkk	.
=53	=53	=53	=53	=53	=53	=53	=53	=53	=53
4r	.	(4d\	pp	2d\	.	8..dd\L	.	4ff#\	.
.	.	.	.	.	.	32ccn\Jkk	.	.	.
4r	.	2G/	.	.	.	4bn\	.	8..gg\L	.
.	.	.	.	.	.	.	.	32ffn\Jkk	.
(4C/	pp	.	.	[4c\)	.	8..cc\L	.	4ee\	.
.	.	.	.	.	.	32b-\Jkk)	.	.	.
=54	=54	=54	=54	=54	=54	=54	=54	=54	=54
(4FF/)	.	8A/	.	8c\L]	.	[4a/	.	8..ff\L	.
.	.	4c/	.	(8e-\	.	.	.	.	.
.	.	.	.	.	.	.	.	32ee-\Jkk)	.
8FF#/L)	.	.	.	8d\	.	(8..a/L]	.	([2dd\	.
(8FF#/	.	8A/L	.	8c\	.	.	.	.	.
.	.	.	.	.	.	32d/Jkk	.	.	.
8GG/	.	8G/	.	8B-\	.	8e/L	.	.	.
8AA/J)	.	8F/J)	.	8A\J)	.	8f/J)	.	.	.
=55	=55	=55	=55	=55	=55	=55	=55	=55	=55
4BB-/	p	4E/	p	4G/	p	4g/	p	8dd\L]	p
.	.	.	.	.	.	.	.	8cc\J)	.
(8..BB-/L	pp	4r	.	4r	.	4r	.	4r	.
32AA-/Jkk	.	.	.	.	.	.	.	.	.
8GG-/L	.	4r	.	16r	.	[4b-\	pp	([4dd-\	pp
.	.	.	.	16en\LL	pp	.	.	.	.
8FF/J)	.	.	.	16r	.	.	.	.	.
.	.	.	.	16f\JJ	.	.	.	.	.
=56	=56	=56	=56	=56	=56	=56	=56	=56	=56
4EEn/	.	2.r	.	4g\	.	4b-\]	.	8dd-\L]	.
.	.	.	.	.	.	.	.	8cc\J)	.
(8..BB-/L	pp	.	.	4r	.	4r	.	4r	.
32AA-/Jkk	.	.	.	.	.	.	.	.	.
8GGn/L	.	.	.	(8E-/L	pp	16r	.	[4dd-\	pp
.	.	.	.	.	.	16b-/LL	pp	.	.
8FF/J)	.	.	.	8F/J	.	16r	.	.	.
.	.	.	.	.	.	16a-/JJ	.	.	.
=57	=57	=57	=57	=57	=57	=57	=57	=57	=57
8EE-/L	.	(8E-/L	pp	8G/L	.	16r	.	(4.dd-\]	.
.	.	.	.	.	.	16g/LL	.	.	.
8E-/	.	8F/	.	8A-/	.	16r	.	.	.
.	.	.	.	.	.	16f/JJ	.	.	.
8E-/	.	8G/	.	8B-/	.	16r	.	.	.
.	.	.	.	.	.	16e-/LL	.	.	.
8E-/	.	8A-/	.	8c/	.	16r	.	16cc\LL	.
.	.	.	.	.	.	16e-/JJ	.	16b-\JJ	.
8E-/	.	8B-/	.	8d-/	.	16r	.	8ee-\L	.
.	.	.	.	.	.	16e-/LL	.	.	.
8E-/J	.	8G/J	.	8B-/J	.	16r	.	8dd-\J)	.
.	.	.	.	.	.	16e-/JJ	.	.	.
=58	=58	=58	=58	=58	=58	=58	=58	=58	=58
8AA-/	p	8A-/)	p	8c/)	p	8e-/	p	(8..cc\L	p
8r	.	8r	.	8r	.	8r	.	.	.
.	.	.	.	.	.	.	.	32dd-\Jkk)	.
4r	.	4r	.	4r	.	4r	.	(8.ee-\L	.
.	.	.	.	.	.	.	.	32ff\LL	.
.	.	.	.	.	.	.	.	32gg\JJJ)	.
(4c\	.	(4e-\	.	(4a-\	.	4r	.	(8.aa-\L	.
.	.	.	.	.	.	.	.	32bb-\LL	.
.	.	.	.	.	.	.	.	32ccc\JJJ)	.
=59	=59	=59	=59	=59	=59	=59	=59	=59	=59
8B-'\)	.	8en'\)	.	8g'\)	.	4r	.	(8..ddd-\L	mp
8r	.	8r	.	8r	.	.	.	.	.
.	.	.	.	.	.	.	.	32bb-\Jkk)	.
8BB-'/	.	8E'/	.	8G'/	.	(8..dd-\L	.	8gg\	.
8r	.	8r	.	8r	.	.	.	8r	.
.	.	.	.	.	.	32b-\Jkk)	.	.	.
4r	.	4r	.	4r	.	8g/	.	4r	.
.	.	.	.	.	.	8r	.	.	.
=60	=60	=60	=60	=60	=60	=60	=60	=60	=60
8D'\	.	8A-'/	.	8Bn'/	.	4r	.	(8..f/L	.
8r	.	8r	.	8r	.	.	.	.	.
.	.	.	.	.	.	.	.	32d/Jkk)	.
8d'\	.	8f'\	.	8a-'\	.	(8.ff\L	.	8Bn/	.
8r	.	8r	.	8r	.	.	.	8r	.
.	.	.	.	.	.	16dd\Jk)	.	.	.
4r	.	4r	.	4r	.	8bn\	.	4r	.
.	.	.	.	.	.	8r	.	.	.
=61	=61	=61	=61	=61	=61	=61	=61	=61	=61
(8..B-\L	pp	(8..b-\L	pp	2.r	.	2.r	.	2.r	.
32G\Jkk)	.	32g\Jkk)	.	.	.	.	.	.	.
(4E\	.	(4e\	.	.	.	.	.	.	.
4F\	.	4f\	.	.	.	.	.	.	.
=62	=62	=62	=62	=62	=62	=62	=62	=62	=62
4D-/	.	4d-\	.	4r	.	8r	.	8r	.
.	.	.	.	.	.	8a-/	.	8ff\	.
4BBn/	.	4Bn/	.	4r	.	8r	.	8r	.
.	.	.	.	.	.	8g/	.	8ff\	.
4C/)	.	4c\)	.	8r	.	8r	.	(16ee\LL	.
.	.	.	.	.	.	.	.	16dd\	.
.	.	.	.	8e\	.	8g/	.	16cc\	.
.	.	.	.	.	.	.	.	16b-\JJ)	.
=63	=63	=63	=63	=63	=63	=63	=63	=63	=63
16r	.	(4c/	p	2f\	p	8f/	p	(8..a/L	p
(16FF/LL	p	.	.	.	.	.	.	.	.
16AA/	.	.	.	.	.	8r	.	.	.
16C/JJ)	.	.	.	.	.	.	.	.	.
.	.	.	.	.	.	.	.	32b-/Jkk)	.
16r	.	4.A/)	.	.	.	8f'/ 8cc'/ 8ff'/L	f	(8.cc\L	.
(16AA/LL	.	.	.	.	.	.	.	.	.
16C/	.	.	.	.	.	8aa/	.	.	.
16F/JJ)	.	.	.	.	.	.	.	32dd\LL	.
.	.	.	.	.	.	.	.	32ee\JJJ)	.
16r	.	.	.	(4f\	.	8ccc/	.	(8.ff\L	.
(16AA/LL	.	.	.	.	.	.	.	.	.
16C/	.	(8A/	.	.	.	8A/ 8f/ 8cc/J	.	.	.
16F/JJ)	.	.	.	.	.	.	.	32gg\LL	.
.	.	.	.	.	.	.	.	32aa\JJJ)	.
=64	=64	=64	=64	=64	=64	=64	=64	=64	=64
16r	.	4G/	.	4e\	.	8G/ 8e/ 8cc/L	.	(8..bb-\L	.
(16GG/LL	.	.	.	.	.	.	.	.	.
16C/	.	.	.	.	.	8bb-/J	.	.	.
16E/JJ)	.	.	.	.	.	.	.	.	.
.	.	.	.	.	.	.	.	32gg\Jkk)	.
16r	.	4B-/	.	4g\	.	8r	.	(4ee\	.
(16BB-/LL	.	.	.	.	.	.	.	.	.
16C/	.	.	.	.	.	8G/ 8e/ 8cc/L	.	.	.
16G/JJ)	.	.	.	.	.	.	.	.	.
16r	.	4A/)	.	4f\)	.	8A/ 8f/ 8cc/	.	[4ff\)	.
(16AA/LL	.	.	.	.	.	.	.	.	.
16C/	.	.	.	.	.	8aa/J	.	.	.
16F/JJ)	.	.	.	.	.	.	.	.	.
=65	=65	=65	=65	=65	=65	=65	=65	=65	=65
16r	.	4G/	.	4f\	.	8B-/ 8g/L	.	(16ff\LL]	.
(16BB-/LL	.	.	.	.	.	.	.	32ee\L	.
.	.	.	.	.	.	.	.	32ff\	.
16F/	.	.	.	.	.	8gg/J	.	32gg\	.
.	.	.	.	.	.	.	.	32ff\	.
16BBn/JJ)	.	.	.	.	.	.	.	32ee\	.
.	.	.	.	.	.	.	.	32dd\JJJ)	.
16r	.	(4A/	.	(4f\	.	8c/ 8f/ 8a/L	.	[4cc\	.
(16C\LL	.	.	.	.	.	.	.	.	.
16F\	.	.	.	.	.	8aa/	.	.	.
16A\JJ)	.	.	.	.	.	.	.	.	.
16r	.	8.B-/L	.	8.g\L	.	8c/ 8g/ 8b-/	.	(16cc\LL]	.
(16C\LL	.	.	.	.	.	.	.	16cc#\	.
16E\	.	.	.	.	.	8bb-/J	.	16dd\	.
16G\JJ)	.	16G/Jk)	.	16B-\Jk)	.	.	.	16b-\JJ)	.
=66	=66	=66	=66	=66	=66	=66	=66	=66	=66
.	.	.	.	.	.	.	.	(aq/LLL	.
.	.	.	.	.	.	.	.	b-q/	.
.	.	.	.	.	.	.	.	ccq/JJJ	.
16r	.	(16G/LL	.	(16B-/LL	.	8f\ 8a\L	.	16b-\LL)	.
16FF/LL	<	16F/	.	16A/	.	.	.	16a\	.
16C/	.	16B-/	.	16d/	.	8ccc\	.	16dd\	.
16F/JJ	.	16A/JJ)	.	16c/JJ)	.	.	.	&(16ccn\JJ&)	.
16A\LL	.	8A/	.	8c/	.	8aa\	.	4cc\	.
16F\	.	.	.	.	.	.	.	.	.
16c\	.	8r	.	8r	.	8ff\	.	.	.
16A\JJ	>	.	.	.	.	.	.	.	.
16F\LL	.	4r	.	4r	.	8cc\	.	16r	.
16A\	.	.	.	.	.	.	.	(16c/LL	.
16C\	.	.	.	.	.	8a\J	.	16f/	.
16F\JJ	.	.	.	.	.	.	.	16a/JJ)	.
=67	=67	=67	=67	=67	=67	=67	=67	=67	=67
16r	.	(2A/	<	(2f\	<	8r	.	(8..cc/L	<
(16AA/LL	<	.	.	.	.	.	.	.	.
16C/	.	.	.	.	.	8A\ 8f\ 8cc\L	.	.	.
16F/JJ)	.	.	.	.	.	.	.	.	.
.	.	.	.	.	.	.	.	32a/Jkk)	.
16r	.	.	.	.	.	8aa\	.	4f/	.
(16AA/LL	.	.	.	.	.	.	.	.	.
16C/	.	.	.	.	.	8ff\J	.	.	.
16F/JJ)	.	.	.	.	.	.	.	.	.
16r	.	8B-/L	>	8g\L	>	8g\ 8cc\ 8ee\L	.	(16e/LL	>
16BB-/LL	>	.	.	.	.	.	.	16g/	.
16C/	.	8G'/J)	.	8e\J)	.	8ccc\J	.	16dd/	.
16G/JJ	.	.	.	.	.	.	.	16cc/JJ)	.
=68	=68	=68	=68	=68	=68	=68	=68	=68	=68
16r	.	(2A/	<	(2f\	<	8r	.	(16cc\LL	<
16AA/LL	<	.	.	.	.	.	.	32bn\L	.
.	.	.	.	.	.	.	.	32cc\	.
16C/	.	.	.	.	.	8A\ 8f\ 8cc\L	.	32dd\	.
.	.	.	.	.	.	.	.	32cc\	.
16F/JJ	.	.	.	.	.	.	.	32b-\	.
.	.	.	.	.	.	.	.	32a\JJJ)	.
16r	.	.	.	.	.	8aa\	.	(8g/L	.
(16AA/LL	.	.	.	.	.	.	.	.	.
16C/	.	.	.	.	.	8ff\J	.	8f/J)	.
16F/JJ)	.	.	.	.	.	.	.	.	.
(16BB-/LL	>	8B-/L)	>	8g\L	>	8g\ 8cc\ 8ee\L	.	(24e/LL	>
.	.	.	.	.	.	.	.	24g/	.
16C/)	.	.	.	.	.	.	.	.	.
.	.	.	.	.	.	.	.	24b-/JJ)	.
16EE'/	.	8G/J	.	8c\J)	.	8e\ 8cc\ 8bb-\J	.	(16dd\LL	.
16E'/JJ	.	.	.	.	.	.	.	16cc\JJ)	.
=69	=69	=69	=69	=69	=69	=69	=69	=69	=69
16FF'\LL	.	(8A/L	.	(8c\L	.	8f\ 8cc\ 8aa\L	.	(48cc\LLL	.
.	.	.	.	.	.	.	.	48dd\	.
.	.	.	.	.	.	.	.	48cc\	.
16F'\	.	.	.	.	.	.	.	48bn\	.
.	.	.	.	.	.	.	.	48cc\	.
.	.	.	.	.	.	.	.	48ff\JJJ)	.
16BB-'\	.	8B-/J	.	8d\	.	8d\ 8b-\ 8gg\J	.	(48g/LLL	.
.	.	.	.	.	.	.	.	48a/	.
.	.	.	.	.	.	.	.	48g/	.
16B-'\JJ	.	.	.	.	.	.	.	48f#/	.
.	.	.	.	.	.	.	.	48g/	.
.	.	.	.	.	.	.	.	48dd/JJJ)	.
16r	.	4A/	.	8c\	.	16f\ 16a\LL	.	(8dd\L	.
(16C\LL	.	.	.	.	.	16ff\	.	.	.
16F\	.	.	.	8f\	.	16aa\	.	[8cc\J)	.
16A\JJ)	.	.	.	.	.	16ccc\JJ	.	.	.
16r	.	8G/L	.	8e\	.	16G\ 16e\LL	.	(16cc/LL]	.
(16CC/LL	.	.	.	.	.	16ee\	.	32b-/L	.
.	.	.	.	.	.	.	.	32a/	.
16C/)	.	8B-/J)	.	8g\J)	.	16gg\	.	32g/	.
.	.	.	.	.	.	.	.	32a/	.
16C'/JJ	.	.	.	.	.	16ccc\JJ	.	32b-/	.
.	.	.	.	.	.	.	.	32bn/JJJ)	.
=70	=70	=70	=70	=70	=70	=70	=70	=70	=70
16r	.	(4B-/	>	(4g\	>	16G\ 16e\LL	.	(8..cc/L	>
(16FF/LL	>	.	.	.	.	16ee\	.	.	.
16F/)	.	.	.	.	.	16gg\	.	.	.
16F'/JJ	.	.	.	.	.	16ccc\JJ	.	.	.
.	.	.	.	.	.	.	.	32e/Jkk)	.
8FF/	p	8A/)	p	8f\)	p	8f\ 8a\ 8ff\	.	8f'/	p
8r	.	8r	.	(16C/LL	.	8r	.	8r	.
.	.	.	.	16F/JJ)	.	.	.	.	.
4r	.	4r	.	(16F/LL	.	(16f/LL	p	4r	.
.	.	.	.	16A/)	.	16a/)	.	.	.
.	.	.	.	(16A/	.	(16a/	.	.	.
.	.	.	.	16c/JJ)	.	16cc/JJ)	.	.	.
=71	=71	=71	=71	=71	=71	=71	=71	=71	=71
(2AA/	<	4r	.	(8..c/L	.	(8..cc/L	.	16r	.
.	.	.	.	.	.	.	.	16cc'\LL	.
.	.	.	.	.	.	.	.	16ff'\	.
.	.	.	.	.	.	.	.	16aa'\JJ	.
.	.	.	.	32A/Jkk)	<	32a/Jkk)	<	.	.
.	.	16r	.	(4F/	.	(4f/	>	[2ccc\	.
.	.	16c'/LL	<	.	.	.	.	.	.
.	.	16A'/	.	.	.	.	.	.	.
.	.	16F'/JJ	.	.	.	.	.	.	.
4BB-/)	>	[4C/	>	16E/LL	>	16e/LL	.	.	.
.	.	.	.	16G/	.	16g/	.	.	.
.	.	.	.	16d/	.	16dd/	.	.	.
.	.	.	.	16c/JJ)	.	16cc/JJ)	.	.	.
=72	=72	=72	=72	=72	=72	=72	=72	=72	=72
(2AA/	<	8C/]	.	(16c/LL	<	(16cc\LL	<	16ccc\LL]	.
.	.	.	.	32Bn/L	.	32bn\L	.	16cc'\	.
.	.	.	.	32c/	.	32cc\	.	.	.
.	.	8r	.	32d/	.	32dd\	.	16ff'\	.
.	.	.	.	32c/	.	32cc\	.	.	.
.	.	.	.	32B-/	.	32b-\	.	16aa'\JJ	.
.	.	.	.	32A/JJJ)	.	32a\JJJ)	.	.	.
.	.	16r	.	(8G/L	.	(8g/L	.	[4ccc\	.
.	.	(16c/LL	.	.	.	.	.	.	.
.	.	16A/	.	8F/J)	.	8f/J)	.	.	.
.	.	16F/JJ	.	.	.	.	.	.	.
(8BB-/L)	<	16C/LL	.	(24E/LL	>	(24e/LL	>	(16ccc\LL]	.
.	.	.	.	24G/	.	24g/	.	.	.
.	.	16E/	>	.	.	.	.	16bb-\	.
.	.	.	.	24B-/JJ	.	24b-/JJ	.	.	.
8EE/J)	.	16G/	.	16d\LL	.	16dd\LL	.	16gg\	.
.	.	16B-/JJ)	.	16c\JJ)	.	16cc\JJ)	.	16ccc\JJ)	.
=73	=73	=73	=73	=73	=73	=73	=73	=73	=73
(8FF/L	.	(16A/LL	.	(16c\LL	.	(16cc\LL	.	(16ccc\LL	.
.	.	16c/)	.	16f\)	.	16ff\)	.	16aa\)	.
8BB-/J)	.	(16D/	.	16G\	.	(16g\	.	(16gg\	.
.	.	16B-/JJ)	.	&(16d\JJ&)	.	16dd\JJ)	.	16ddd\JJ)	.
4C/	.	(16E/LL	.	(8d\L	.	(8dd\L	.	(8ddd\L	.
.	.	16B-/	.	.	.	.	.	.	.
.	.	16F/	.	[8c\J)	.	[8cc\J)	.	[8ccc\J)	.
.	.	16A/JJ)	.	.	.	.	.	.	.
4C/	.	(16F/LL	.	(16c/LL]	.	(16cc/LL]	.	(8ccc\L]	.
.	.	16G/	.	32B-/L	.	32b-/L	.	.	.
.	.	.	.	32A/	.	32a/	.	.	.
.	.	16E/	.	32G/	.	32g/	.	[8ee\J)	.
.	.	.	.	32A/	.	32a/	.	.	.
.	.	16G/JJ)	.	32B-/	.	32b-/	.	.	.
.	.	.	.	32B-/JJJ)	.	32bn/JJJ)	.	.	.
=74	=74	=74	=74	=74	=74	=74	=74	=74	=74
8FF/L	>	16C/ 16G/LL	>	(8..c/L	>	(8..cc/L	>	16ee\LL]	>
.	.	16C/ 16B-/	.	.	.	.	.	(32ddd\L	.
.	.	.	.	.	.	.	.	32ccc\JJJ	.
8CC/	.	16C/ 16B-/	.	.	.	.	.	32bb-\LLL	.
.	.	.	.	.	.	.	.	32aa\	.
.	.	16C/ 16B-/JJ	.	.	.	.	.	32bb-\	.
.	.	.	.	32E/Jkk)	.	32e/Jkk)	.	32gg\JJJ)	.
8FF/J	p	8C/ 8A/	p	8F/	p	8f/	p	8ff\	p
8r	.	8r	.	8r	.	8r	.	8r	.
4r	.	(8C/L	.	(8c/L	.	(8a/L	.	8r	.
.	.	8E/J	.	8B-/J	.	8g/J	.	16r	.
.	.	.	.	.	.	.	.	16cc\	.
=75	=75	=75	=75	=75	=75	=75	=75	=75	=75
4FF/	.	8F/)	.	8A/)	.	8f/)	.	(8..aa\L	.
.	.	8r	.	8r	.	8r	.	.	.
.	.	.	.	.	.	.	.	32gg\Jkk	.
4r	.	8r	.	8r	.	8r	.	8ff\)	.
.	.	(8c\L	.	(4a\	.	(4cc\	.	8r	.
4r	.	8d\	.	.	.	.	.	8r	.
.	.	8e\J	.	8g\)	.	8b-\	.	16r	.
.	.	.	.	.	.	.	.	16cc\	.
=76	=76	=76	=76	=76	=76	=76	=76	=76	=76
4F\	.	4f\)	.	8c\	.	8a/)	.	(8..ccc\L	.
.	.	.	.	8r	.	8r	.	.	.
.	.	.	.	.	.	.	.	32bb-\Jkk	.
4r	.	8r	.	8r	.	8r	.	8aa\)	.
.	.	8A/L	.	(4ee-\	.	(4gg\	.	8r	.
4r	.	(8A/	.	.	.	.	.	4r	.
.	.	8Bn/J	.	8dd\)	.	8ff\	.	.	.
=77	=77	=77	=77	=77	=77	=77	=77	=77	=77
4r	.	8c/L	.	(8a\L	.	8ee-\L	.	(8ggg\L	.
.	.	8d/)	.	8b-\	.	8dd\	.	8fff\	.
4.FF/	.	(8C/	.	8g-\	.	8a\	.	8eee-\	.
.	.	8D/	.	8f\	.	8b-\	.	8ddd\	.
.	.	8E-/	.	8e-\	.	8g-\	.	8ccc\	.
8FF/	.	8En/J)	.	8d-\J)	.	8gn\J)	.	8bb-\J)	.
=78	=78	=78	=78	=78	=78	=78	=78	=78	=78
4FF/	p	16F\LL	.	4c\	p	8f/	p	4aa\	p
.	.	16f'\	.	.	.	.	.	.	.
.	.	16f'\	.	.	.	8r	.	.	.
.	.	16f'\JJ	.	.	.	.	.	.	.
4r	.	16f\LL	.	4r	.	4r	.	4r	.
.	.	16f\	.	.	.	.	.	.	.
.	.	16f\	.	.	.	.	.	.	.
.	.	16f\JJ	.	.	.	.	.	.	.
16r	.	16f\LL	.	16r	.	16r	.	4r	.
16B-'\LL	.	16f\	.	16dn'\LL	.	16dd'\LL	.	.	.
16A'\	.	16f\	.	16c'\	.	16cc'\	.	.	.
16B-'\JJ	.	16f\JJ	.	16d'\JJ	.	16dd'\JJ	.	.	.
=79	=79	=79	=79	=79	=79	=79	=79	=79	=79
(4Bn\	>	16f\LL	.	(4d\	>	(4dd\	>	4r	.
.	.	16f\	.	.	.	.	.	.	.
.	.	16f\	.	.	.	.	.	.	.
.	.	16f\JJ	.	.	.	.	.	.	.
8c\)	.	16f\LL	.	8e-\)	.	8ee-\)	.	(8.fff^\L	.
.	.	16f\	.	.	.	.	.	.	.
8r	.	16f\	.	8r	.	8r	.	.	.
.	.	16f\JJ	.	.	.	.	.	32eee-\LL	.
.	.	.	.	.	.	.	.	32ccc\JJJ	.
16r	.	16f\LL	.	16r	.	16r	.	8ff'\)	.
16c'\LL	.	16f\	.	16e-'\LL	.	16ee-'\LL	.	.	.
16B'\	.	16f\	.	16d'\	.	16dd'\	.	8r	.
16c'\JJ	.	16f\JJ	.	16e-'\JJ	.	16ee-'\JJ	.	.	.
=80	=80	=80	=80	=80	=80	=80	=80	=80	=80
(4c#\	.	16f\LL	.	(4e\	>	(4ee\	>	4r	.
.	.	16f\	.	.	.	.	.	.	.
.	.	16f\	.	.	.	.	.	.	.
.	.	16f\JJ	.	.	.	.	.	.	.
8d\)	.	16f\LL	.	8f\)	.	8ff\)	.	(8.fff^\L	.
.	.	16f\	.	.	.	.	.	.	.
8r	.	16f\	.	8r	.	8r	.	.	.
.	.	16f\JJ	.	.	.	.	.	32ddd\LL	.
.	.	.	.	.	.	.	.	32bb-\JJJ	.
16r	.	16f\LL	.	16r	.	16r	.	8ff'\)	.
16d'\LL	.	16f\	.	16f'\LL	.	16ff'\LL	.	.	.
16c#'\	.	16f\	.	16e'\	.	16ee'\	.	8r	.
16d'\JJ	.	16f\JJ	.	16f'\JJ	.	16ff'\JJ	.	.	.
=81	=81	=81	=81	=81	=81	=81	=81	=81	=81
8e-\	.	16B-/LL	.	16f\LL	.	2.gg-\	>	2.r	.
.	.	16B-/	>	16f\	>	.	.	.	.
8r	.	16B-/	.	16f\	.	.	.	.	.
.	.	16B-/JJ	.	16f\JJ	.	.	.	.	.
4r	.	16B-/LL	.	16e-\LL	.	.	.	.	.
.	.	16B-/	.	16e-\	.	.	.	.	.
.	.	16B-/	.	16e-\	.	.	.	.	.
.	.	16B-/JJ	.	16e-\JJ	.	.	.	.	.
8r	.	16B-/LL	.	16d-\ 16e-\LL	.	.	.	.	.
.	.	16B-/	.	16d-\ 16e-\	.	.	.	.	.
8EE-'/	p	16B-/	.	16d-\ 16e-\	.	.	.	.	.
.	.	16B-/JJ	.	16d-\ 16e-\JJ	.	.	.	.	.
=82	=82	=82	=82	=82	=82	=82	=82	=82	=82
4AA-'/	pp	16A-/LL	.	16B-\ 16e-\LL	pp	(2gg-\	pp	16r	.
.	.	16c/	pp	16e-\	.	.	.	16ccc'\LL	pp
.	.	16c/	.	16e-\	.	.	.	16bb-'\	.
.	.	16c/JJ	.	16e-\JJ	.	.	.	16cccn'\JJ	.
16r	.	16c/LL	.	16e-\LL	.	.	.	4ggg-'\	.
16AA-'/LL	.	16c/	.	16e-\	.	.	.	.	.
16GG'/	.	16c/	.	16e-\	.	.	.	.	.
16AA-'/JJ	.	16c/JJ	.	16e-\JJ	.	.	.	.	.
4D-'/	.	16c/LL	.	16d-\LL	.	[4ff\)	.	16r	.
.	.	16c/	.	16d-\	.	.	.	16cc\LL	.
.	.	16c/	.	16d-\	.	.	.	16bn'\	.
.	.	16c/JJ	.	16d-\JJ	.	.	.	16cc\JJ	.
=83	=83	=83	=83	=83	=83	=83	=83	=83	=83
4GG-'/	.	16B-/LL	.	16d-\LL	.	(2ff\]	.	16r	.
.	.	16B-/	.	16d-\	.	.	.	16bb-'\LL	.
.	.	16B-/	.	16d-\	.	.	.	16aa'\	.
.	.	16B-/JJ	.	16d-\JJ	.	.	.	16bb-'\JJ	.
16r	.	16B-/LL	.	16e\LL	.	.	.	4fff'\	.
16GG-'/LL	.	16B-/	.	16d-\	.	.	.	.	.
16FF'/	.	16B-/	.	16d-\	.	.	.	.	.
16GG-'/JJ	.	16B-/JJ	.	16d-\JJ	.	.	.	.	.
4C'/	.	16B-/LL	.	16c\LL	.	[4ee-\)	.	16r	.
.	.	16B-/	.	16c\	.	.	.	16b-/LL	.
.	.	16B-/	.	16c\	.	.	.	16a/	.
.	.	16B-/JJ	.	16c\JJ	.	.	.	16b-/JJ	.
=84	=84	=84	=84	=84	=84	=84	=84	=84	=84
4FF'/	.	16An/LL	.	16c/LL	.	(2ee-\]	.	16r	.
.	.	16A/	.	16c/	.	.	.	16aa'\LL	.
.	.	16A/	.	16c/	.	.	.	16gg#'\	.
.	.	16A/JJ	.	16c/JJ	.	.	.	16aa'\JJ	.
16r	.	16A/LL	.	16c/LL	.	.	.	4eee-'\	.
16FF'/LL	.	16A/	.	16c/	.	.	.	.	.
16EE/	.	16A/	.	16c/	.	.	.	.	.
16FF'/JJ	.	16A/JJ	.	16c/JJ	.	.	.	.	.
4BB-'/	.	16F/LL	.	16B-/LL	.	4dd-\)	.	16r	.
.	.	16F/	.	16B-/	.	.	.	16f'/LL	.
.	.	16F/	.	16B-/	.	.	.	16en'/	.
.	.	16F/JJ	.	16B-/JJ	.	.	.	16f'/JJ	.
=85	=85	=85	=85	=85	=85	=85	=85	=85	=85
4EE'/	.	16G/LL	.	16B-\LL	.	[2cc\	.	16r	.
.	.	16B-/	.	16g\	.	.	.	16ggn'\LL	.
.	.	16B-/	.	16g\	.	.	.	16ff#'\	.
.	.	16B-/JJ	.	16g\JJ	.	.	.	16gg'\JJ	.
16r	.	16B-/LL	.	16g\LL	.	.	.	4ccc'\	.
16EE'/LL	.	16B-/	.	16g\	.	.	.	.	.
16DD'/	.	16B-/	.	16g\	.	.	.	.	.
16EE'/JJ	.	16B-/JJ	.	16g\JJ	.	.	.	.	.
4FF'/	.	16A-/LL	.	16f\LL	.	(8cc\L]	.	16r	.
.	.	16A-/	.	16f\	.	.	.	16fffn'\LL	.
.	.	16c/	.	16f\	.	16b-\L	.	16eee'\	.
.	.	16c/JJ	.	16f\JJ	.	16a-\JJ)	.	16fff'\JJ	.
=86	=86	=86	=86	=86	=86	=86	=86	=86	=86
16r	.	16dn\LL	.	16f\LL	.	(4g/	.	8r	.
16BBn'/LL	.	16d\	.	16f\	.	.	.	.	.
16AA#'/	.	16d\	.	16f\	.	.	.	16r	.
16BB'/JJ	.	16d\JJ	.	16f\JJ	.	.	.	16fff'\	.
16r	.	16c\LL	.	16f\LL	.	4a-/	.	16eee'\LL	.
16C/LL	.	16c\	.	16f\	.	.	.	16fff'\JJ	.
16BBn'/	.	16c\	.	16f\	.	.	.	16r	.
16C/JJ	.	16c\JJ	.	16f\JJ	.	.	.	16ccc'\	.
16r	.	16B-/LL	.	16c\LL	.	4en/	.	16bbn'\LL	.
16C/LL	.	16B-/	.	16c\	.	.	.	16ccc'\JJ	.
16BB'/	.	16B-/	.	16c\	.	.	.	16r	.
16C'/JJ	.	16B-/JJ	.	16c\JJ	.	.	.	16ccc'\	.
=87	=87	=87	=87	=87	=87	=87	=87	=87	=87
8FF/	p	8An/	p	8c\	p	8f'/)	p	8ff'\	p
8r	.	8r	.	8r	.	8r	.	(8f\L	.
4r	.	4r	.	4r	.	4r	.	8cc\	.
.	.	.	.	.	.	.	.	8a\	.
4r	.	4r	.	4r	.	4r	.	8ff\	.
.	.	.	.	.	.	.	.	8dd\J)	.
=88	=88	=88	=88	=88	=88	=88	=88	=88	=88
2.r	.	2.r	.	(4f\	.	[4g/	.	(4bn\	.
.	.	.	.	8e-\)	.	8g/]	.	8cc'\)	.
.	.	.	.	8r	.	8r	.	(8g\L	.
.	.	.	.	4r	.	4r	.	8ee-\	.
.	.	.	.	.	.	.	.	8cc\J)	.
=89	=89	=89	=89	=89	=89	=89	=89	=89	=89
2.r	.	2.r	.	(4e-\	.	[4f/	.	(4a/	.
.	.	.	.	8d\)	.	8f/]	.	8b-'/)	.
.	.	.	.	8r	.	(8d/L	.	(8dd\L	.
.	.	.	.	4r	.	8b-/	.	8bb-\	.
.	.	.	.	.	.	8g/J)	.	8gg\J)	.
=90	=90	=90	=90	=90	=90	=90	=90	=90	=90
4r	.	(8B-/L	.	8c\L	.	(8e/L	.	8ee\L	.
.	.	8A/	.	(8c\	.	8f/	.	(8ff\	.
(8BB-/L	.	8d/	.	8F\	.	8G/	.	8g\	.
8BBn/	.	8F/	.	8f\	.	8d/	.	8dd\	.
8C/)	.	8E/	.	8e\	.	8c/	.	8cc\	.
[8CC/J	.	8G/J	.	8g\J	.	8B-/J	.	8b-\J	.
=91	=91	=91	=91	=91	=91	=91	=91	=91	=91
(8CC/L]	p	8F'/)	p	8c\)	p	8A'/)	.	8a'/)	p
16.FF/L	.	8r	.	8r	.	8r	.	8r	.
32AA/JJk)	.	.	.	.	.	.	.	.	.
(8C/L	<	4r	.	4r	.	4r	.	4r	.
8AA/	.	.	.	.	.	.	.	.	.
8F/	>	4r	.	4r	.	4r	.	8r	.
8D/J)	.	.	.	.	.	.	.	(8aa\	<
=92	=92	=92	=92	=92	=92	=92	=92	=92	=92
(4BBn/	.	8r	.	8r	.	8r	.	8ddd\L	.
.	.	8d\L	.	(8g\L	<	(8f/L	.	8gg\)	>
8C'/)	<	8c\J	.	8ee-\	>	8e-/J)	.	8gg'\J	.
(8GG/L	.	8r	.	8cc\J)	.	(4g/	<	8r	.
8E-/	>	4r	.	4r	.	.	.	8r	.
8C/J)	.	.	.	.	.	8cc\)	>	(8gg\	<
=93	=93	=93	=93	=93	=93	=93	=93	=93	=93
(4AA/	.	8r	.	8r	.	8r	.	8ccc\L	>
.	.	(8c/L	.	(8f\L	<	(8e/L	.	8ff\)	.
8BB-'/)	.	8B-/J)	.	8dd\	>	8d/J)	.	8ff'\J	.
(8DD-/L	.	(8D-/L	.	8b-\J)	.	(4f/	<	8r	.
8BB-/	.	8B-/	.	8r	.	.	.	8r	.
8GG-/J)	.	8G-/J)	.	(8d-\	.	8b-/)	>	(8bb-\	.
=94	=94	=94	=94	=94	=94	=94	=94	=94	=94
4EEn/	.	4En/	.	8c\L	.	8r	.	8ggg\L	.
.	.	.	.	8g\J)	.	8cc\	.	8bb-\J)	.
4FF/	.	4F/	.	8r	.	8r	.	8r	.
.	.	.	.	8f\	.	8cc\	.	8aa-\	.
4BBn/	.	4Bn/	.	8r	.	8r	.	8r	.
.	.	.	.	8f\	.	8dd\	.	8gg\	.
=95	=95	=95	=95	=95	=95	=95	=95	=95	=95
(8.C\L	.	(8.c\L	.	2f\	.	2cc\	.	2aan\	.
32F\LL	.	32f\LL	.	.	.	.	.	.	.
32A\JJJ	.	32a\JJJ	.	.	.	.	.	.	.
32c\LLL	.	32cc\LLL	.	.	.	.	.	.	.
32Bn\	.	32bn\	.	.	.	.	.	.	.
32B-\	.	32b-\	.	.	.	.	.	.	.
32A\	.	32a\	.	.	.	.	.	.	.
32G\	.	32g\	.	.	.	.	.	.	.
32F\	.	32f\	.	.	.	.	.	.	.
32E\	.	32e\	.	.	.	.	.	.	.
32D\JJJ)	.	32d\JJJ	.	.	.	.	.	.	.
16C/LL	p	16c/LL)	p	8c'\L	p	8b-'\L	p	8ee'\L	p
16BB-'/	.	16B-'/	.	.	.	.	.	.	.
16AA'/	.	16A'/	.	8c'\J	.	8b-'\J	.	8ee'\J	.
16GG'/JJ	.	16G'/JJ	.	.	.	.	.	.	.
=96	=96	=96	=96	=96	=96	=96	=96	=96	=96
8FF'/	.	8F/L	.	8c'\	<	8a'/	.	8ff'\	.
(8A\L	<	8F/	.	8r	.	16f'/LL	<	8r	.
.	.	.	.	.	.	16g'/JJ	.	.	.
8c\	.	8F/	.	4r	.	16a'\LL	.	4r	.
.	.	.	.	.	.	16b-'\	.	.	.
8f\J	.	8F/	.	.	.	16cc'\	.	.	.
.	.	.	.	.	.	16dd'\JJ	.	.	.
4e\	>	8F/	.	4r	.	(8..cc\L	>	(4G/	>
.	.	8F/J	.	.	.	.	.	.	.
.	.	.	.	.	.	32b-\Jkk)	.	.	.
=97	=97	=97	=97	=97	=97	=97	=97	=97	=97
8f\L)	<	8F/	.	8r	.	8a/	.	8A/)	.
8f\J	.	8r	.	(8a\L	<	(8cc\L	<	16ff'\LL	<
.	.	.	.	.	.	.	.	16gg'\JJ	.
(8f'\L	.	4r	.	8cc\	.	8ff\	.	16aa'\LL	.
.	.	.	.	.	.	.	.	16bb-'\	.
8f'\	.	.	.	8ff\J	.	8aa\J)	.	16ccc'\	.
.	.	.	.	.	.	.	.	16ddd'\JJ	.
8f'\	>	4r	.	4ee\)	>	(4gg\	>	(8..ccc\L	>
8f'\J)	.	.	.	.	.	.	.	.	.
.	.	.	.	.	.	.	.	32bb-\Jkk)	.
=98	=98	=98	=98	=98	=98	=98	=98	=98	=98
8f\	.	8F/L	.	8ff\	<	8cc\)	.	8aa\	.
(8A\L	<	8F/	.	8r	.	(32f/LLL	<	8r	.
.	.	.	.	.	.	32e/	.	.	.
.	.	.	.	.	.	32g/	.	.	.
.	.	.	.	.	.	32f/JJJ	.	.	.
8c\	.	8F/	.	4r	.	32a/LLL	.	4r	.
.	.	.	.	.	.	32g/	.	.	.
.	.	.	.	.	.	32b-/	.	.	.
.	.	.	.	.	.	32a/JJJ	.	.	.
8f\J)	.	8F/	.	.	.	32cc\LLL	.	.	.
.	.	.	.	.	.	32bn\	.	.	.
.	.	.	.	.	.	32dd\	.	.	.
.	.	.	.	.	.	32cc\JJJ)	.	.	.
(16e\LL	>	8F/	.	4r	.	[8cc\L	.	(16g/LL	<
16d\	.	.	.	.	.	.	.	16f/	.
16e\	.	8F/J	.	.	.	(32cc\LL]	>	16g/	>
.	.	.	.	.	.	32cc#\	.	.	.
16c\JJ)	.	.	.	.	.	32dd\	.	16e/JJ)	.
.	.	.	.	.	.	32b-\JJJ	.	.	.
=99	=99	=99	=99	=99	=99	=99	=99	=99	=99
8f\L	<	8F/	.	8r	.	8a/)	.	8a'/	.
8f\	.	8r	.	8a\L	<	(8ccn\L	<	(32ff\LLL	<
.	.	.	.	.	.	.	.	32ee\	.
.	.	.	.	.	.	.	.	32gg\	.
.	.	.	.	.	.	.	.	32ff\JJJ	.
8f\	.	4r	.	8cc\	.	8ff\	.	32aa\LLL	.
.	.	.	.	.	.	.	.	32gg\	.
.	.	.	.	.	.	.	.	32bb-\	.
.	.	.	.	.	.	.	.	32aa\JJJ	.
8f\	.	.	.	8ff\J	.	8aa\J	.	32ccc\LLL	.
.	.	.	.	.	.	.	.	32bbn\	.
.	.	.	.	.	.	.	.	32ddd\	.
.	.	.	.	.	.	.	.	32ccc\JJJ)	.
(8f'\	>	4r	.	16ee\LL	>	16gg\LL	>	[8ccc\L	.
.	.	.	.	16dd\	.	16ff\	.	.	.
8f'\J)	.	.	.	(16ee\	.	16gg\	.	(32ccc\LL]	>
.	.	.	.	.	.	.	.	32ccc#\	.
.	.	.	.	16cc\JJ)	.	16ee\JJ)	.	32ddd\	.
.	.	.	.	.	.	.	.	32bb-\JJJ)	.
=100	=100	=100	=100	=100	=100	=100	=100	=100	=100
8f\	.	2.r	.	8ff\	.	(8cc\	.	8aa\	.
8r	.	.	.	8r	.	32r	.	32r	.
.	.	.	.	.	.	32cc\LLL	.	(32aa\LLL	.
.	.	.	.	.	.	32dd\	.	32bb-\	.
.	.	.	.	.	.	32b-\JJJ	.	32gg\JJJ	.
4r	.	.	.	4r	.	8a'/)	.	8ff'\)	.
.	.	.	.	.	.	32r	.	32r	.
.	.	.	.	.	.	32a/LLL	.	(32cc\LLL	.
.	.	.	.	.	.	32b-/	.	32dd\	.
.	.	.	.	.	.	32g/JJJ	.	32b-\JJJ	.
4r	.	.	.	8r	.	8f'/	.	8a'/)	.
.	.	.	.	32r	.	8r	.	32r	.
.	.	.	.	(32c/LLL	.	.	.	(32a/LLL	.
.	.	.	.	32d/	.	.	.	32b-/	.
.	.	.	.	32B-/JJJ	.	.	.	32g/JJJ	.
=101	=101	=101	=101	=101	=101	=101	=101	=101	=101
8r	.	4r	.	8A'/)	.	4r	.	8f'/)	.
32r	.	.	.	8r	.	.	.	8r	.
(32AA/LLL	pp	.	.	.	.	.	.	.	.
32BB-/	.	.	.	.	.	.	.	.	.
32GG/JJJ	.	.	.	.	.	.	.	.	.
8FF'/)	.	8F/	pp	8c\	pp	8A/	pp	8f/	pp
32r	.	8r	.	8r	.	8r	.	8r	.
(32AA/LLL	.	.	.	.	.	.	.	.	.
32BB-/	.	.	.	.	.	.	.	.	.
32GG/JJJ	.	.	.	.	.	.	.	.	.
8FF'/)	.	8F/	.	8c\	.	8A/	.	8f/	.
32r	.	8r	.	8r	.	8r	.	8r	.
(32AA/LLL	.	.	.	.	.	.	.	.	.
32BB-/	.	.	.	.	.	.	.	.	.
32C/JJJ)	.	.	.	.	.	.	.	.	.
=102	=102	=102	=102	=102	=102	=102	=102	=102	=102
32EE-/LLL	f	32F/LLL	f	8c'\L	f	8A'/L	f	8f\L	f
32E-/	.	32F/	.	.	.	.	.	.	.
32E-/	.	32F/	.	.	.	.	.	.	.
32E-/JJ	.	32F/JJ	.	.	.	.	.	.	.
8E-'/J	.	8F'/J	.	32c\LL	.	32A/ 32f/LL	.	8ff\J	.
.	.	.	.	32c\	.	32A/ 32f/	.	.	.
.	.	.	.	32c\	.	32A/ 32f/	.	.	.
.	.	.	.	32c\JJJ	.	32A/ 32f/JJJ	.	.	.
32E-\LLL	.	32F/LLL	.	8c'\L	.	8A'/ 8f'/L	.	8r	.
32E-\	.	32F/	.	.	.	.	.	.	.
32E-\	.	32F/	.	.	.	.	.	.	.
32E-\JJ	.	32F/JJ	.	.	.	.	.	.	.
8E-'\J	.	8F'/J	.	32c\LL	.	32A/ 32f/LL	.	8aa\	.
.	.	.	.	32c\	.	32A/ 32f/	.	.	.
.	.	.	.	32c\	.	32A/ 32f/	.	.	.
.	.	.	.	32c\JJJ	.	32A/ 32f/JJJ	.	.	.
32E-\LLL	.	32F/LLL	.	8c'\L	.	8A'/ 8f'/L	.	8r	.
32E-\	.	32F/	.	.	.	.	.	.	.
32E-\	.	32F/	.	.	.	.	.	.	.
32E-\JJ	.	32F/JJ	.	.	.	.	.	.	.
8E-'\J	.	8F'/J	.	32c\LL	.	32A/ 32f/LL	.	8ccc\	.
.	.	.	.	32c\	.	32A/ 32f/	.	.	.
.	.	.	.	32c\	.	32A/ 32f/	.	.	.
.	.	.	.	32c\JJJ	.	32A/ 32f/JJJ	.	.	.
=103	=103	=103	=103	=103	=103	=103	=103	=103	=103
32D-\LLL	.	32F/LLL	.	8d-'\L	.	8B-'/ 8f'/L	.	8f\L	.
32D-\	.	32F/	.	.	.	.	.	.	.
32D-\	.	32F/	.	.	.	.	.	.	.
32D-\JJ	.	32F/JJ	.	.	.	.	.	.	.
8D-'\J	.	8F'/J	.	32d-\LL	.	32B-/ 32f/LL	.	8ff\J	.
.	.	.	.	32d-\	.	32B-/ 32f/	.	.	.
.	.	.	.	32d-\	.	32B-/ 32f/	.	.	.
.	.	.	.	32d-\JJJ	.	32B-/ 32f/JJJ	.	.	.
32D-\LLL	.	32F/LLL	.	8d-'\L	.	8B-'/ 8f'/L	.	8r	.
32D-\	.	32F/	.	.	.	.	.	.	.
32D-\	.	32F/	.	.	.	.	.	.	.
32D-\JJ	.	32F/JJ	.	.	.	.	.	.	.
8D-'\J	.	8F'/J	.	32d-\LL	.	32B-/ 32f/LL	.	8bb-\	.
.	.	.	.	32d-\	.	32B-/ 32f/	.	.	.
.	.	.	.	32d-\	.	32B-/ 32f/	.	.	.
.	.	.	.	32d-\JJJ	.	32B-/ 32f/JJJ	.	.	.
32BB-/LLL	.	32F/LLL	.	8d-'\L	.	8B-'/ 8f'/L	.	8r	.
32BB-/	.	32F/	.	.	.	.	.	.	.
32BB-/	.	32F/	.	.	.	.	.	.	.
32BB-/JJ	.	32F/JJ	.	.	.	.	.	.	.
8BB-'/J	.	8F'/J	.	32d-\LL	.	32B-/ 32f/LL	.	8ddd-\	.
.	.	.	.	32d-\	.	32B-/ 32f/	.	.	.
.	.	.	.	32d-\	.	32B-/ 32f/	.	.	.
.	.	.	.	32d-\JJJ	.	32B-/ 32f/JJJ	.	.	.
=104	=104	=104	=104	=104	=104	=104	=104	=104	=104
.	.	.	.	.	.	.	.	(dd-q/	.
32BB-/LLL	.	32D-/LLL	.	32G-/LLL	.	8B-'/ 8g-'/L	.	4.ddd-\)	.
32BB-/	.	32D-/	.	32G-/	.	.	.	.	.
32BB-/	.	32D-/	.	32G-/	.	.	.	.	.
32BB-/JJ	.	32D-/JJ	.	32G-/JJ	.	.	.	.	.
8BB-'/J	.	8D-'/J	.	8G-'/J	.	32B-/ 32g-/LL	.	.	.
.	.	.	.	.	.	32B-/ 32g-/	.	.	.
.	.	.	.	.	.	32B-/ 32g-/	.	.	.
.	.	.	.	.	.	32B-/ 32g-/JJJ	.	.	.
32BB-/LLL	.	32D-/LLL	.	32G-/LLL	.	8B-'/ 8g-'/L	.	.	.
32BB-/	.	32D-/	.	32G-/	.	.	.	.	.
32BB-/	.	32D-/	.	32G-/	.	.	.	.	.
32BB-/JJ	.	32D-/JJ	.	32G-/JJ	.	.	.	.	.
8BB-'/J	.	8D-'/J	.	8G-'/J	.	32B-/ 32g-/LL	.	16.ddd-'\LL	.
.	.	.	.	.	.	32B-/ 32g-/	.	.	.
.	.	.	.	.	.	32B-/ 32g-/	.	.	.
.	.	.	.	.	.	32B-/ 32g-/JJJ	.	32ccc-'\JJk	.
.	.	.	.	.	.	.	.	ccc-q/	.
32BB-/LLL	.	32D-/LLL	.	32G-/LLL	.	8B-'/ 8g-'/L	.	16.bb-\LL	.
32BB-/	.	32D-/	.	32G-/	.	.	.	.	.
32BB-/	.	32D-/	.	32G-/	.	.	.	.	.
32BB-/JJ	.	32D-/JJ	.	32G-/JJ	.	.	.	32aa-'\JJk	.
.	.	.	.	.	.	.	.	aa-q/	.
8BB-'/J	.	8D-'/J	.	8G-'/J	.	32dd-/LL	.	16.gg-'\LL	.
.	.	.	.	.	.	32dd-/	.	.	.
.	.	.	.	.	.	32dd-/	.	.	.
.	.	.	.	.	.	32dd-/JJJ	.	32ff'\JJk	.
=105	=105	=105	=105	=105	=105	=105	=105	=105	=105
.	.	.	.	.	.	.	.	(eeq/LLL	.
.	.	.	.	.	.	.	.	ffq/	.
.	.	.	.	.	.	.	.	ggq/JJJ	.
32GG/LLL	.	32En/LLL	.	32B-/LLL	.	8dd-'\L	.	16.ff'\LL)	.
32GG/	.	32E/	.	32B-/	.	.	.	.	.
32GG/	.	32E/	.	32B-/	.	.	.	.	.
32GG/JJ	.	32E/JJ	.	32B-/JJ	.	.	.	32ee'\JJk	.
8GG'/J	.	8E'/J	.	8B-'/J	.	32dd-\LL	.	4bb-\	.
.	.	.	.	.	.	32dd-\	.	.	.
.	.	.	.	.	.	32dd-\	.	.	.
.	.	.	.	.	.	32dd-\JJJ	.	.	.
32GG/LLL	.	32E/LLL	.	32B-/LLL	.	8dd-'/L	.	.	.
32GG/	.	32E/	.	32B-/	.	.	.	.	.
32GG/	.	32E/	.	32B-/	.	.	.	.	.
32GG/JJ	.	32E/JJ	.	32B-/JJ	.	.	.	.	.
8GG'/J	.	8E'/J	.	8B-'/J	.	32B-/LL	.	16.bb-'\LL	.
.	.	.	.	.	.	32B-/	.	.	.
.	.	.	.	.	.	32B-/	.	.	.
.	.	.	.	.	.	32B-'/JJJ	.	32aa-'\JJk	.
.	.	.	.	.	.	.	.	aa-q/	.
32GG/LLL	.	32E/LLL	.	32B-/LLL	.	8B-'/L	.	16.gg'\LL	.
32GG/	.	32E/	.	32B-/	.	.	.	.	.
32GG/	.	32E/	.	32B-/	.	.	.	.	.
32GG/JJ	.	32E/JJ	.	32B-/JJ	.	.	.	32ff'\JJk	.
.	.	.	.	.	.	.	.	ffq/	.
8GG'/J	.	8E'/J	.	8B-'/J	.	32B-/LL	.	16.ee'\LL	.
.	.	.	.	.	.	32B-/	.	.	.
.	.	.	.	.	.	32B-/	.	.	.
.	.	.	.	.	.	32B-/JJJ	.	32dd-'\JJk	.
=106	=106	=106	=106	=106	=106	=106	=106	=106	=106
32E\LLL	p	32G/LLL	p	32B-/LLL	p	8B-/L	p	(32dd-\LLL	p
32E\	.	32G/	.	32B-/	.	.	.	32cc\JJJ)	.
32E\	.	32G/	.	32B-/	.	.	.	32r	.
32E\JJJ	.	32G/JJJ	.	32B-/JJJ	.	.	.	32bn'\	.
8r	.	8r	.	8r	.	32g/LL	.	(32b\LLL	.
.	.	.	.	.	.	32g/	.	32cc\JJJ)	.
.	.	.	.	.	.	32g/	.	32r	.
.	.	.	.	.	.	32g/JJJ	.	(32dd-'\	.
32E\LLL	.	32G/LLL	.	32B-/LLL	.	8r	.	32dd-\LLL	.
32E\	.	32G/	.	32B-/	.	.	.	32cc\JJJ)	.
32E\	.	32G/	.	32B-/	.	.	.	32r	.
32E\JJJ	.	32G/JJJ	.	32B-/JJJ	.	.	.	32b'\	.
8r	.	8r	.	8r	.	32g/LLL	.	32b\LLL	.
.	.	.	.	.	.	32g/	.	32cc\JJJ	.
.	.	.	.	.	.	32g/	.	32r	.
.	.	.	.	.	.	32g/JJJ	.	(32dd-'\	.
32E\LLL	.	32G/LLL	.	32B-/LLL	.	8r	.	32dd-\LLL	.
32E\	.	32G/	.	32B-/	.	.	.	32cc\JJJ)	.
32E\	.	32G/	.	32B-/	.	.	.	32r	.
32E\JJJ	.	32G/JJJ	.	32B-/JJJ	.	.	.	32b'\	.
8r	.	8r	.	8r	.	32g/LLL	.	32b\LLL	.
.	.	.	.	.	.	32g/	.	32cc\JJJ	.
.	.	.	.	.	.	32g/	.	32r	.
.	.	.	.	.	.	32g/JJJ	.	32dd-'\	.
=107	=107	=107	=107	=107	=107	=107	=107	=107	=107
2.r	.	2.r	.	2.r	.	8r	.	(32dd-\LLL	pp
.	.	.	.	.	.	.	.	32cc\JJJ)	.
.	.	.	.	.	.	.	.	32r	.
.	.	.	.	.	.	.	.	32bn'\	.
.	.	.	.	.	.	32c/LLL	pp	(32dd-\LLL	.
.	.	.	.	.	.	32c/	.	32cc\JJJ)	.
.	.	.	.	.	.	32c/	.	32r	.
.	.	.	.	.	.	32c/JJJ	.	(32b'\	.
.	.	.	.	.	.	8r	.	32ddn\LLL	.
.	.	.	.	.	.	.	.	32cc\JJJ)	.
.	.	.	.	.	.	.	.	32r	.
.	.	.	.	.	.	.	.	32b'\	.
.	.	.	.	.	.	32c/LLL	.	(32dd\LLL	.
.	.	.	.	.	.	32c/	.	32cc'\JJJ)	.
.	.	.	.	.	.	32c/	.	32r	.
.	.	.	.	.	.	32c/JJJ	.	32b'\	.
.	.	.	.	.	.	8r	.	(16dd'\LL	.
.	.	.	.	.	.	.	.	16cc'\	.
.	.	.	.	.	.	32c/LLL	.	16bn'\	.
.	.	.	.	.	.	32c/	.	.	.
.	.	.	.	.	.	32c/	.	16b-'\JJ)	.
.	.	.	.	.	.	32c/JJJ	.	.	.
=108	=108	=108	=108	=108	=108	=108	=108	=108	=108
2.r	.	2.r	.	2.r	.	2f/	p	(8..a/L	p
.	.	.	.	.	.	.	.	32b-/Jkk)	.
.	.	.	.	.	.	.	.	(8.cc\L	.
.	.	.	.	.	.	.	.	32dd\LL	.
.	.	.	.	.	.	.	.	32ee\JJJ)	.
.	.	.	.	.	.	(8a/L	.	(8.ff\L	.
.	.	.	.	.	.	8f/J)	.	.	.
.	.	.	.	.	.	.	.	32gg\LL	.
.	.	.	.	.	.	.	.	32aa\JJJ)	.
=109	=109	=109	=109	=109	=109	=109	=109	=109	=109
2.r	.	2.r	.	2.r	.	(8c/L	.	(8..bb-\L	.
.	.	.	.	.	.	8b-/	.	.	.
.	.	.	.	.	.	.	.	32gg\Jkk)	.
.	.	.	.	.	.	8c#/	.	(4ee\	.
.	.	.	.	.	.	8b-/)	.	.	.
.	.	.	.	.	.	(8d/	.	[4ff\)	.
.	.	.	.	.	.	8a/J)	.	.	.
=110	=110	=110	=110	=110	=110	=110	=110	=110	=110
(8BB-/L	p	8F/L	p	8G/L	p	16r	.	(32ff\LLL]	.
.	.	.	.	.	.	.	.	32ee\	.
.	.	.	.	.	.	(16d/LL	.	32ff\	.
.	.	.	.	.	.	.	.	32ee\	.
8BBn/J)	.	8F/J	.	8G/J	.	16f/	.	32gg\	.
.	.	.	.	.	.	.	.	32ff\	.
.	.	.	.	.	.	16g/JJ)	.	32ee\	.
.	.	.	.	.	.	.	.	32dd\JJJ)	.
4C/	.	(4F/	.	(4A/	.	16r	.	(32cc\LLL	.
.	.	.	.	.	.	.	.	32bn\	.
.	.	.	.	.	.	(16c/LL	.	32cc\	.
.	.	.	.	.	.	.	.	32b\	.
.	.	.	.	.	.	16f/	.	32dd\	.
.	.	.	.	.	.	.	.	32cc\	.
.	.	.	.	.	.	16a/JJ)	.	32b-\	.
.	.	.	.	.	.	.	.	32a\JJJ)	.
4CC/	.	8.G/L	.	8.B-/L	.	16r	.	(32cc\LLL	.
.	.	.	.	.	.	.	.	32bn\	.
.	.	.	.	.	.	(16e/LL	.	32dd\	.
.	.	.	.	.	.	.	.	32cc\	.
.	.	.	.	.	.	16g/	.	32b-\	.
.	.	.	.	.	.	.	.	32a\	.
.	.	16E/Jk)	.	16G/Jk)	.	16B-/JJ)	.	32g\	.
.	.	.	.	.	.	.	.	32cc\JJJ)	.
=111	=111	=111	=111	=111	=111	=111	=111	=111	=111
(8.FF/L	p	16F/LL	p	16A/LL	p	16A/LL	p	8f/	p
.	.	16A/	.	16c/	.	16f/	.	.	.
.	.	16A/	.	16c/	.	16f/	.	8r	.
32AA/LL	.	16A/JJ	.	16c/JJ	.	16f/JJ	.	.	.
32BB-/JJJ)	.	.	.	.	.	.	.	.	.
(8.C\L	.	16A/LL	.	16c\LL	.	16f/LL	.	4r	.
.	.	16A/	.	16c\	.	16f/	.	.	.
.	.	16A/	.	16c\	.	16f/	.	.	.
32D\LL)	.	16A/JJ	.	16c\JJ	.	16f/JJ	.	.	.
32E\JJJ	.	.	.	.	.	.	.	.	.
(8.F\L	.	16A/LL	.	16c\LL	.	16f/LL	.	4r	.
.	.	16A/	.	16c\	.	16f/	.	.	.
.	.	16A/	.	16c\	.	16f/	.	.	.
32G\LL	.	16A/JJ	.	16c\JJ	.	16f/JJ	.	.	.
32A\JJJ)	.	.	.	.	.	.	.	.	.
=112	=112	=112	=112	=112	=112	=112	=112	=112	=112
8..B-\L	.	16G/LL	.	16c\LL	.	16B-/ 16e/LL	.	(8.cc\L	.
.	.	16G/	.	16c\	.	16B-/ 16e/	.	.	.
.	.	16G/	.	16c\	.	16B-/ 16e/	.	.	.
.	.	16G/JJ	.	16c\JJ	.	16B-/ 16e/JJ	.	32ee\LL	.
32G\Jkk	.	.	.	.	.	.	.	32ff\JJJ)	.
8..E\L	.	16G/LL	.	16c\LL	.	16B-/ 16e/LL	.	(8.gg\L	.
.	.	16G/	.	16c\	.	16B-/ 16e/	.	.	.
.	.	16G/	.	16c\	.	16B-/ 16e/	.	.	.
.	.	16G/JJ	.	16c\JJ	.	16B-/ 16e/JJ	.	32aa\LL	.
32C\Jkk	.	.	.	.	.	.	.	32bb-\JJJ)	.
8..BB-/L	.	16G/LL	.	16c\LL	.	16B-/ 16e/LL	.	(8.ccc\L	.
.	.	16G/	.	16c\	.	16B-/ 16e/	.	.	.
.	.	16G/	.	16c\	.	16B-/ 16e/	.	.	.
.	.	16G/JJ	.	16c\JJ	.	16B-/ 16e/JJ	.	32ddd\LL	.
32GG/Jkk	.	.	.	.	.	.	.	32eee\JJJ)	.
=113	=113	=113	=113	=113	=113	=113	=113	=113	=113
(8.FF/L	p	24A/LL	p	24c\LL	p	24f/LL	p	(8..fff\L	p
.	.	24A/	.	24c\	.	24f/	.	.	.
.	.	24A/	.	24c\	.	24f/	.	.	.
.	.	24A/	.	24c\	.	24f/	.	.	.
.	.	24A/	.	24c\	.	24f/	.	.	.
32AA/LL	.	.	.	.	.	.	.	.	.
.	.	24A/JJ	.	24c\JJ	.	24f/JJ	.	.	.
32BB-/JJJ)	.	.	.	.	.	.	.	32ccc\Jkk	.
(8.C\L	.	24A/LL	.	24c\LL	.	24f/LL	.	8ccc\)	.
.	.	24A/	.	24c\	.	24f/	.	.	.
.	.	24A/	.	24c\	.	24f/	.	.	.
.	.	24A/	.	24c\	.	24f/	.	8r	.
.	.	24A/	.	24c\	.	24f/	.	.	.
32D\LL	.	.	.	.	.	.	.	.	.
.	.	24A/JJ	.	24c\JJ	.	24f/JJ	.	.	.
32E\JJJ)	.	.	.	.	.	.	.	.	.
(8.F\L	.	24A/LL	.	24c\LL	.	24f/LL	.	4r	.
.	.	24A/	.	24c\	.	24f/	.	.	.
.	.	24A/	.	24c\	.	24f/	.	.	.
.	.	24A/	.	24c\	.	24f/	.	.	.
.	.	24A/	.	24c\	.	24f/	.	.	.
32G\LL	.	.	.	.	.	.	.	.	.
.	.	24A/JJ	.	24c\JJ	.	24f/JJ	.	.	.
32A\JJJ)	.	.	.	.	.	.	.	.	.
=114	=114	=114	=114	=114	=114	=114	=114	=114	=114
8..B-\L	.	24G/LL	.	24c\LL	.	24B-/ 24e/LL	.	(8.cc\L	.
.	.	24G/	.	24c\	.	24B-/ 24e/	.	.	.
.	.	24G/	.	24c\	.	24B-/ 24e/	.	.	.
.	.	24G/	.	24c\	.	24B-/ 24e/	.	.	.
.	.	24G/	.	24c\	.	24B-/ 24e/	.	.	.
.	.	.	.	.	.	.	.	32ee\LL	.
.	.	24G/JJ	.	24c\JJ	.	24B-/ 24e/JJ	.	.	.
32G\Jkk	.	.	.	.	.	.	.	32ff\JJJ)	.
8..E\L	.	24G/LL	.	24c\LL	.	24B-/ 24e/LL	.	(8.gg\L	.
.	.	24G/	.	24c\	.	24B-/ 24e/	.	.	.
.	.	24G/	.	24c\	.	24B-/ 24e/	.	.	.
.	.	24G/	.	24c\	.	24B-/ 24e/	.	.	.
.	.	24G/	.	24c\	.	24B-/ 24e/	.	.	.
.	.	.	.	.	.	.	.	32aa\LL	.
.	.	24G/JJ	.	24c\JJ	.	24B-/ 24e/JJ	.	.	.
32C\Jkk	.	.	.	.	.	.	.	32bb-\JJJ)	.
8..BB-/L	.	24G/LL	.	24c\LL	.	24B-/ 24e/LL	.	(8.ccc\L	.
.	.	24G/	.	24c\	.	24B-/ 24e/	.	.	.
.	.	24G/	.	24c\	.	24B-/ 24e/	.	.	.
.	.	24G/	.	24c\	.	24B-/ 24e/	.	.	.
.	.	24G/	.	24c\	.	24B-/ 24e/	.	.	.
.	.	.	.	.	.	.	.	32ddd\LL	.
.	.	24G/JJ	.	24c\JJ	.	24B-/ 24e/JJ	.	.	.
32GG/Jkk	.	.	.	.	.	.	.	32eee\JJJ)	.
=115	=115	=115	=115	=115	=115	=115	=115	=115	=115
8AA/	.	8A/	.	8c/	.	8f/	.	(4fff\	.
8r	.	8r	.	8r	.	8r	.	.	.
4r	.	4r	.	4r	.	4r	.	8ccc'\)	.
.	.	.	.	.	.	.	.	8r	.
4r	.	4r	.	4r	.	8ff#'\	pp	8aa'\	pp
.	.	.	.	.	.	8r	.	8r	.
=116	=116	=116	=116	=116	=116	=116	=116	=116	=116
2.r	.	4r	.	4r	.	8dd'\	.	8ddd'\	.
.	.	.	.	.	.	8r	.	8r	.
.	.	8g'\	pp	8b-'\	pp	8gg'\	.	8bb-'\	.
.	.	8r	.	8r	.	8r	.	8r	.
.	.	8e'\	.	8g'\	.	4r	.	4r	.
.	.	8r	.	8r	.	.	.	.	.
=117	=117	=117	=117	=117	=117	=117	=117	=117	=117
4r	.	8c\	.	8cc'\	.	4r	.	2.r	.
.	.	8r	.	8r	.	.	.	.	.
8A'\	pp	8f\	.	8a\	.	8c'/	.	.	.
8r	.	8r	.	8r	.	8r	.	.	.
8F#'\	.	4r	.	4r	.	8A'/	.	.	.
8r	.	.	.	.	.	8r	.	.	.
=118	=118	=118	=118	=118	=118	=118	=118	=118	=118
8D'\	.	4r	.	4r	.	8d'/	.	4r	.
8r	.	.	.	.	.	8r	.	.	.
8G'\	.	8B-/	.	8d'\	.	8b-'/	.	8bb-'\	.
8r	.	8r	.	8r	.	8r	.	8r	.
8E\	.	8B-/	.	8c'\	.	8g'/	.	8gg'\	.
8r	.	8r	.	8r	.	8r	.	8r	.
=119	=119	=119	=119	=119	=119	=119	=119	=119	=119
8C/	.	8c'/	.	8e'\	.	8cc'\	.	8ccc'\	.
8r	.	8r	.	8r	.	8r	.	8r	.
8Fn'\	.	8A'/	.	8f'\	.	8a/	.	8aa'\	.
8r	.	8r	.	8r	.	8r	.	8r	.
(4BB-/	ff	[4F/ (4B-/	ff	[4f\ (4b-\	ff	[4f/ (4dd/	ff	(4ddd\	ff
=120	=120	=120	=120	=120	=120	=120	=120	=120	=120
8C/)	.	8F/] 8A/)	.	8f\] 8a\)	.	8f/] 8cc/)	.	8ccc\)	.
8r	.	8r	.	8r	.	8r	.	8r	.
8c\	p	8f\	p	8cc\	p	8a/	p	4r	.
8r	.	8r	.	8r	.	8r	.	.	.
4r	.	4r	.	4r	.	4r	.	4r	.
=121	=121	=121	=121	=121	=121	=121	=121	=121	=121
8C/	p	8g\	p	4r	.	8b-/	p	8eee\	p
8r	.	8r	.	.	.	8r	.	8r	.
8c\	.	8g\	.	8cc\	p	8b-/	.	4r	.
8r	.	8r	.	8r	.	8r	.	.	.
4r	.	4r	.	4r	.	4r	.	4r	.
=122	=122	=122	=122	=122	=122	=122	=122	=122	=122
8f\	.	8f\	.	8cc\	.	8a/	.	8fff\	.
8r	.	8r	.	8r	.	8r	.	8r	.
4r	.	4r	.	4r	.	4r	.	4r	.
8FF/	pp	8F/	pp	8c/	pp	8f/	pp	8a/	pp
8r	.	8r	.	8r	.	8r	.	8r	.
=123	=123	=123	=123	=123	=123	=123	=123	=123	=123
8FF/	.	8F/	.	8A/	.	8c/	.	8f/	.
8r	.	8r	.	8r	.	8r	.	8r	.
4r	.	4r	.	4r	.	4r	.	4r	.
4r	.	4r	.	4r	.	4r	.	4r	.
==	==	==	==	==	==	==	==	==	==
*-	*-	*-	*-	*-	*-	*-	*-	*-	*-
!!!ONB: Scanned with SharpEye into MusicXML by Don Anthony 2006///
!!!ONB: Converted to Humdrum by Craig Sapp 2006/07/24/
